;FLAVOR:Marlin
;TIME:36384
;Filament used: 29.0861m
;Layer height: 0.2
;MINX:44.4
;MINY:13.736
;MINZ:0.24
;MAXX:176.665
;MAXY:206.163
;MAXZ:13.49
;Generated with Cura_SteamEngine main
M140 S60
M105
M190 S60
M104 S200
M105
M109 S200
M82 ;absolute extrusion mode
; Ender 3 Custom Start G-code
G92 E0 ; Reset Extruder
G28 ; Home all axes
G29 ; BLTouch 
G1 Z2.0 F3000 ; Move Z Axis up little to prevent scratching of Heat Bed
G1 X0.1 Y20 Z0.3 F5000.0 ; Move to start position
G1 X0.1 Y200.0 Z0.3 F1500.0 E15 ; Draw the first line
G1 X0.4 Y200.0 Z0.3 F5000.0 ; Move to side a little
G1 X0.4 Y20 Z0.3 F1500.0 E30 ; Draw the second line
G92 E0 ; Reset Extruder
G1 Z2.0 F3000 ; Move Z Axis up little to prevent scratching of Heat Bed
G1 X5 Y20 Z0.3 F5000.0 ; Move over to prevent blob squish
G92 E0
G92 E0
G1 F1500 E-6.5
;LAYER_COUNT:62
;LAYER:-6
M107
G0 F9000 X45.475 Y21.786 Z0.24
;TYPE:SUPPORT-INTERFACE
G1 F1500 E0
G1 F1125 X45.414 Y22.128 E0.02773
G1 X45.344 Y22.69 E0.07294
G1 X45.31 Y23.197 E0.1135
G1 X45.301 Y23.505 E0.1381
G1 X45.3 Y102.426 E6.43791
G1 X45.309 Y102.768 E6.46522
G1 X45.332 Y103.168 E6.4972
G1 X45.411 Y103.849 E6.55193
G1 X45.525 Y104.423 E6.59864
G1 X45.657 Y104.945 E6.64162
G1 X45.771 Y105.306 E6.67184
G1 X45.971 Y105.837 E6.71714
G1 X46.198 Y106.343 E6.76141
G1 X46.367 Y106.765 E6.79769
G1 X46.553 Y107.419 E6.85197
G1 X46.653 Y108.075 E6.90494
G1 X46.671 Y108.762 E6.9598
G1 X46.601 Y109.454 E7.01532
G1 X46.447 Y110.121 E7.06996
G1 X46.208 Y110.759 E7.12434
G1 X45.891 Y111.364 E7.17886
G1 X45.533 Y111.982 E7.23588
G1 X45.317 Y112.417 E7.27464
G1 X45.122 Y112.86 E7.31328
G1 X44.92 Y113.4 E7.3593
G1 X44.821 Y113.71 E7.38528
G1 X44.664 Y114.288 E7.43309
G1 X44.582 Y114.665 E7.46389
G1 X44.492 Y115.205 E7.50759
G1 X44.424 Y115.852 E7.55952
G1 X44.4 Y116.448 E7.60713
G1 X44.4 Y195.551 E13.92148
G1 X44.424 Y196.147 E13.96909
G1 X44.492 Y196.793 E14.02094
G1 X44.581 Y197.331 E14.06447
G1 X44.695 Y197.836 E14.1058
G1 X44.781 Y198.153 E14.13201
G1 X44.925 Y198.613 E14.17049
G1 X45.123 Y199.14 E14.21543
G1 X45.376 Y199.71 E14.26521
G1 X45.588 Y200.121 E14.30212
G1 X45.78 Y200.453 E14.33274
G1 X46.134 Y200.999 E14.38468
G1 X46.416 Y201.381 E14.42258
G1 X46.686 Y201.711 E14.45662
G1 X47.094 Y202.164 E14.50528
G1 X47.337 Y202.406 E14.53266
G1 X47.695 Y202.732 E14.57131
G1 X48.202 Y203.146 E14.62356
G1 X48.5 Y203.364 E14.65303
G1 X48.938 Y203.654 E14.69496
G1 X49.481 Y203.967 E14.74499
G1 X49.917 Y204.183 E14.78384
G1 X50.36 Y204.378 E14.82247
G1 X50.899 Y204.58 E14.86842
G1 X51.345 Y204.718 E14.90569
G1 X51.787 Y204.836 E14.9422
G1 X52.165 Y204.919 E14.9731
G1 X52.705 Y205.008 E15.01678
G1 X53.352 Y205.076 E15.06871
G1 X53.91 Y205.099 E15.11329
G1 X166.032 Y205.1 E24.06336
G1 X166.647 Y205.076 E24.11249
G1 X167.293 Y205.008 E24.16434
G1 X167.831 Y204.919 E24.20787
G1 X168.336 Y204.805 E24.24919
G1 X168.653 Y204.719 E24.27541
G1 X169.113 Y204.575 E24.31389
G1 X169.64 Y204.377 E24.35883
G1 X170.209 Y204.124 E24.40853
G1 X170.623 Y203.91 E24.44573
G1 X170.954 Y203.72 E24.4762
G1 X171.501 Y203.364 E24.5283
G1 X171.881 Y203.084 E24.56598
G1 X172.211 Y202.814 E24.60001
G1 X172.664 Y202.406 E24.64868
G1 X172.906 Y202.163 E24.67605
G1 X173.232 Y201.805 E24.7147
G1 X173.645 Y201.299 E24.76684
G1 X173.973 Y200.841 E24.81181
G1 X174.219 Y200.456 E24.84828
G1 X174.466 Y200.02 E24.88828
G1 X174.683 Y199.583 E24.92722
G1 X174.878 Y199.14 E24.96586
G1 X175.08 Y198.6 E25.01188
G1 X175.179 Y198.287 E25.03809
G1 X175.306 Y197.834 E25.07564
G1 X175.419 Y197.333 E25.11664
G1 X175.508 Y196.794 E25.16025
G1 X175.576 Y196.147 E25.21218
G1 X175.6 Y195.553 E25.25963
G1 X175.6 Y116.645 E31.55841
G1 X175.6 Y116.449 E31.57406
G1 X175.576 Y115.852 E31.62175
G1 X175.526 Y115.342 E31.66266
G1 X175.439 Y114.776 E31.70837
G1 X175.305 Y114.164 E31.75838
G1 X175.184 Y113.726 E31.79465
G1 X175.033 Y113.266 E31.8333
G1 X174.845 Y112.781 E31.87482
G1 X174.623 Y112.29 E31.91783
G1 X174.411 Y111.879 E31.95475
G1 X174.105 Y111.357 E32.00305
G1 X173.849 Y110.886 E32.04584
G1 X173.59 Y110.23 E32.10214
G1 X173.425 Y109.599 E32.1542
G1 X173.336 Y108.913 E32.20942
G1 X173.334 Y108.229 E32.26402
G1 X173.42 Y107.545 E32.31905
G1 X173.583 Y106.907 E32.37161
G1 X173.837 Y106.266 E32.42665
G1 X174.07 Y105.736 E32.47286
G1 X174.22 Y105.331 E32.50734
G1 X174.392 Y104.767 E32.55441
G1 X174.526 Y104.208 E32.60029
G1 X174.586 Y103.874 E32.62738
G1 X174.669 Y103.175 E32.68357
G1 X174.7 Y102.492 E32.73815
G1 X174.7 Y23.572 E39.03788
G1 X174.691 Y23.22 E39.06599
G1 X174.668 Y22.83 E39.09717
G1 X174.588 Y22.144 E39.15231
G1 X174.473 Y21.57 E39.19904
G1 X174.337 Y21.032 E39.24333
G1 X174.184 Y20.562 E39.28279
G1 X174.029 Y20.164 E39.31688
G1 X173.836 Y19.731 E39.35472
G1 X173.507 Y19.111 E39.41075
G1 X173.263 Y18.721 E39.44747
G1 X172.919 Y18.236 E39.49494
G1 X172.717 Y17.981 E39.52091
G1 X172.267 Y17.475 E39.57496
G1 X171.929 Y17.142 E39.61283
G1 X171.581 Y16.837 E39.64977
G1 X171.206 Y16.54 E39.68796
G1 X170.684 Y16.176 E39.73876
G1 X170.186 Y15.88 E39.785
G1 X169.671 Y15.619 E39.83109
G1 X169.237 Y15.431 E39.86884
G1 X168.831 Y15.28 E39.90342
G1 X168.267 Y15.108 E39.95049
G1 X167.714 Y14.975 E39.99589
G1 X167.372 Y14.914 E40.02362
G1 X166.81 Y14.844 E40.06883
G1 X166.303 Y14.81 E40.10939
G1 X165.998 Y14.8 E40.13375
G1 X53.728 Y14.809 E49.09563
G1 X53.332 Y14.832 E49.12729
G1 X52.65 Y14.911 E49.18209
G1 X52.07 Y15.027 E49.22931
G1 X51.532 Y15.163 E49.27361
G1 X51.062 Y15.316 E49.31306
G1 X50.665 Y15.471 E49.34708
G1 X50.231 Y15.664 E49.385
G1 X49.611 Y15.993 E49.44102
G1 X49.219 Y16.238 E49.47792
G1 X48.872 Y16.481 E49.51174
G1 X48.479 Y16.785 E49.5514
G1 X47.975 Y17.233 E49.60523
G1 X47.642 Y17.571 E49.6431
G1 X47.342 Y17.913 E49.67942
G1 X47.04 Y18.294 E49.71823
G1 X46.675 Y18.817 E49.76914
G1 X46.38 Y19.314 E49.81527
G1 X46.119 Y19.829 E49.86136
G1 X45.931 Y20.263 E49.89911
G1 X45.78 Y20.669 E49.93369
G1 X45.608 Y21.233 E49.98076
G1 X45.475 Y21.786 E50.02616
G0 F9000 X46.047 Y21.157
G1 F1125 X175.199 Y150.309 E64.60595
G0 F9000 X175.199 Y152.572
G1 F1125 X45.716 Y23.089 E79.22311
G0 F9000 X45.7 Y25.335
G1 F1125 X175.199 Y154.835 E93.84214
G0 F9000 X175.199 Y157.097
G1 F1125 X45.7 Y27.598 E108.4611
G0 F9000 X45.7 Y29.861
G1 F1125 X175.199 Y159.36 E123.08007
G0 F9000 X175.199 Y161.623
G1 F1125 X45.7 Y32.123 E137.69909
G0 F9000 X45.7 Y34.386
G1 F1125 X175.199 Y163.886 E152.31811
G0 F9000 X175.199 Y166.148
G1 F1125 X45.7 Y36.649 E166.93708
G0 F9000 X45.7 Y38.912
G1 F1125 X175.199 Y168.411 E181.55605
G0 F9000 X175.199 Y170.674
G1 F1125 X45.7 Y41.174 E196.17507
G0 F9000 X45.7 Y43.437
G1 F1125 X175.199 Y172.937 E210.79409
G0 F9000 X175.199 Y175.199
G1 F1125 X45.7 Y45.7 E225.41306
G0 F9000 X45.7 Y47.963
G1 F1125 X175.199 Y177.462 E240.03202
G0 F9000 X175.199 Y179.725
G1 F1125 X45.7 Y50.225 E254.65105
G0 F9000 X45.7 Y52.488
G1 F1125 X175.199 Y181.988 E269.27007
G0 F9000 X175.199 Y184.25
G1 F1125 X45.7 Y54.751 E283.88904
G0 F9000 X45.7 Y57.014
G1 F1125 X175.199 Y186.513 E298.508
G0 F9000 X175.199 Y188.776
G1 F1125 X45.7 Y59.276 E313.12702
G0 F9000 X45.7 Y61.539
G1 F1125 X175.199 Y191.039 E327.74605
G0 F9000 X175.199 Y193.301
G1 F1125 X45.7 Y63.802 E342.36501
G0 F9000 X45.7 Y66.064
G1 F1125 X175.199 Y195.563 E356.98398
G0 F9000 X174.953 Y197.581
G1 F1125 X45.7 Y68.327 E371.57523
G0 F9000 X45.7 Y70.59
G1 F1125 X174.382 Y199.272 E386.10197
G0 F9000 X173.567 Y200.72
G1 F1125 X45.7 Y72.853 E400.5367
G0 F9000 X45.7 Y75.115
G1 F1125 X172.543 Y201.959 E414.85589
G0 F9000 X171.319 Y202.998
G1 F1125 X45.7 Y77.378 E429.0369
G0 F9000 X45.7 Y79.641
G1 F1125 X169.886 Y203.827 E443.05609
G0 F9000 X168.216 Y204.42
G1 F1125 X45.7 Y81.904 E456.88676
G0 F9000 X45.7 Y84.166
G1 F1125 X166.224 Y204.691 E470.49261
G0 F9000 X163.969 Y204.698
G1 F1125 X45.7 Y86.429 E483.84383
G0 F9000 X45.7 Y88.692
G1 F1125 X161.706 Y204.698 E496.93959
G0 F9000 X159.444 Y204.698
G1 F1125 X45.7 Y90.955 E509.77994
G0 F9000 X45.7 Y93.217
G1 F1125 X157.181 Y204.698 E522.36488
G0 F9000 X154.918 Y204.698
G1 F1125 X45.7 Y95.48 E534.69435
G0 F9000 X45.7 Y97.743
G1 F1125 X152.655 Y204.698 E546.76836
G0 F9000 X150.393 Y204.698
G1 F1125 X45.7 Y100.006 E558.58695
G0 F9000 X45.7 Y102.268
G1 F1125 X148.13 Y204.698 E570.15013
G0 F9000 X145.867 Y204.698
G1 F1125 X46.059 Y104.89 E581.41732
G0 F9000 X47.055 Y108.149
G1 F1125 X143.604 Y204.698 E592.31661
G0 F9000 X141.342 Y204.698
G1 F1125 X46.839 Y110.196 E602.98487
G0 F9000 X46.128 Y111.748
G1 F1125 X139.079 Y204.698 E613.47792
G0 F9000 X136.816 Y204.698
G1 F1125 X45.393 Y113.275 E623.79854
G0 F9000 X44.92 Y115.065
G1 F1125 X134.553 Y204.698 E633.91709
G0 F9000 X132.291 Y204.698
G1 F1125 X44.8 Y117.207 E643.79383
G0 F9000 X44.8 Y119.47
G1 F1125 X130.028 Y204.698 E653.4151
G0 F9000 X127.765 Y204.698
G1 F1125 X44.8 Y121.733 E662.78091
G0 F9000 X44.8 Y123.996
G1 F1125 X125.502 Y204.698 E671.89125
G0 F9000 X123.24 Y204.698
G1 F1125 X44.8 Y126.258 E680.74623
G0 F9000 X44.8 Y128.521
G1 F1125 X120.977 Y204.698 E689.34575
G0 F9000 X118.714 Y204.698
G1 F1125 X44.8 Y130.784 E697.6898
G0 F9000 X44.8 Y133.047
G1 F1125 X116.452 Y204.698 E705.77844
G0 F9000 X114.189 Y204.698
G1 F1125 X44.8 Y135.309 E713.61167
G0 F9000 X44.8 Y137.572
G1 F1125 X111.926 Y204.698 E721.18944
G0 F9000 X109.663 Y204.698
G1 F1125 X44.8 Y139.835 E728.51173
G0 F9000 X44.8 Y142.098
G1 F1125 X107.4 Y204.698 E735.57856
G0 F9000 X105.137 Y204.698
G1 F1125 X44.8 Y144.36 E742.38998
G0 F9000 X44.8 Y146.623
G1 F1125 X102.874 Y204.698 E748.94593
G0 F9000 X100.612 Y204.698
G1 F1125 X44.8 Y148.886 E755.24647
G0 F9000 X44.8 Y151.149
G1 F1125 X98.349 Y204.698 E761.29155
G0 F9000 X96.086 Y204.698
G1 F1125 X44.8 Y153.411 E767.08121
G0 F9000 X44.8 Y155.674
G1 F1125 X93.823 Y204.698 E772.61541
G0 F9000 X91.561 Y204.698
G1 F1125 X44.8 Y157.937 E777.89419
G0 F9000 X44.8 Y160.199
G1 F1125 X89.298 Y204.698 E782.91757
G0 F9000 X87.035 Y204.698
G1 F1125 X44.8 Y162.462 E787.68547
G0 F9000 X44.8 Y164.725
G1 F1125 X84.772 Y204.698 E792.19792
G0 F9000 X82.51 Y204.698
G1 F1125 X44.8 Y166.988 E796.45495
G0 F9000 X44.8 Y169.25
G1 F1125 X80.247 Y204.698 E800.45657
G0 F9000 X77.984 Y204.698
G1 F1125 X44.8 Y171.513 E804.20272
G0 F9000 X44.8 Y173.776
G1 F1125 X75.721 Y204.698 E807.69341
G0 F9000 X73.459 Y204.698
G1 F1125 X44.8 Y176.039 E810.92868
G0 F9000 X44.8 Y178.301
G1 F1125 X71.196 Y204.698 E813.90855
G0 F9000 X68.933 Y204.698
G1 F1125 X44.8 Y180.564 E816.63294
G0 F9000 X44.8 Y182.827
G1 F1125 X66.67 Y204.698 E819.10188
G0 F9000 X64.408 Y204.698
G1 F1125 X44.8 Y185.09 E821.3154
G0 F9000 X44.8 Y187.352
G1 F1125 X62.145 Y204.698 E823.27351
G0 F9000 X59.882 Y204.698
G1 F1125 X44.8 Y189.615 E824.97615
G0 F9000 X44.8 Y191.878
G1 F1125 X57.62 Y204.698 E826.42338
G0 F9000 X55.357 Y204.698
G1 F1125 X44.8 Y194.141 E827.61515
G0 F9000 X44.859 Y196.463
G1 F1125 X53.035 Y204.639 E828.53812
G0 F9000 X49.822 Y203.688
G1 F1125 X45.806 Y199.672 E828.99148
G1 F1500 E822.49148
G0 F9000 X44.499 Y200.334
G0 X45.265 Y201.613
G0 X46.328 Y202.903
G0 X47.558 Y203.995
G0 X48.984 Y204.909
G0 X50.542 Y205.582
G0 X52.098 Y205.989
G0 X53.889 Y206.163
G0 X166.85 Y206.128
G0 X168.598 Y205.838
G0 X170.133 Y205.326
G0 X171.627 Y204.556
G0 X173.005 Y203.536
G0 X174.127 Y202.398
G0 X175.133 Y201.003
G0 X175.867 Y199.535
G0 X176.372 Y197.957
G0 X176.639 Y196.218
G0 X176.665 Y148.046
G0 X175.199 Y148.046
G1 F1500 E828.99148
G1 F1125 X46.706 Y19.553 E843.49688
G0 F9000 X47.62 Y18.204
G1 F1125 X175.199 Y145.784 E857.89916
G0 F9000 X175.199 Y143.521
G1 F1125 X48.755 Y17.077 E872.17325
G0 F9000 X50.118 Y16.177
G1 F1125 X175.199 Y141.258 E886.29348
G0 F9000 X175.199 Y138.995
G1 F1125 X51.729 Y15.525 E900.23184
G0 F9000 X53.679 Y15.212
G1 F1125 X175.199 Y136.733 E913.95012
G0 F9000 X175.199 Y134.47
G1 F1125 X55.929 Y15.199 E927.41441
G0 F9000 X58.192 Y15.199
G1 F1125 X175.199 Y132.207 E940.62322
G0 F9000 X175.199 Y129.945
G1 F1125 X60.454 Y15.199 E953.57669
G0 F9000 X62.717 Y15.199
G1 F1125 X175.199 Y127.682 E966.27468
G0 F9000 X175.199 Y125.419
G1 F1125 X64.98 Y15.199 E978.71721
G0 F9000 X67.243 Y15.199
G1 F1125 X175.199 Y123.156 E990.90428
G0 F9000 X175.199 Y120.894
G1 F1125 X69.505 Y15.199 E1002.83599
G0 F9000 X71.768 Y15.199
G1 F1125 X175.199 Y118.631 E1014.51223
G0 F9000 X175.195 Y116.364
G1 F1125 X74.031 Y15.199 E1025.93255
G0 F9000 X76.293 Y15.199
G1 F1125 X174.734 Y113.64 E1037.04542
G0 F9000 X173.032 Y109.675
G1 F1125 X78.556 Y15.199 E1047.71069
G0 F9000 X80.819 Y15.199
G1 F1125 X173.039 Y107.42 E1058.12134
G0 F9000 X173.628 Y105.746
G1 F1125 X83.082 Y15.199 E1068.34301
G0 F9000 X85.344 Y15.199
G1 F1125 X174.154 Y104.009 E1078.36865
G0 F9000 X174.299 Y101.891
G1 F1125 X87.607 Y15.199 E1088.15519
G0 F9000 X89.87 Y15.199
G1 F1125 X174.299 Y99.629 E1097.68632
G0 F9000 X174.299 Y97.366
G1 F1125 X92.133 Y15.199 E1106.96199
G0 F9000 X94.395 Y15.199
G1 F1125 X174.299 Y95.103 E1115.98224
G0 F9000 X174.299 Y92.84
G1 F1125 X96.658 Y15.199 E1124.74703
G0 F9000 X98.921 Y15.199
G1 F1125 X174.299 Y90.578 E1133.2564
G0 F9000 X174.299 Y88.315
G1 F1125 X101.184 Y15.199 E1141.51031
G0 F9000 X103.446 Y15.199
G1 F1125 X174.299 Y86.052 E1149.50881
G0 F9000 X174.299 Y83.79
G1 F1125 X105.709 Y15.199 E1157.2519
G0 F9000 X107.972 Y15.199
G1 F1125 X174.299 Y81.527 E1164.73952
G0 F9000 X174.299 Y79.264
G1 F1125 X110.235 Y15.199 E1171.97168
G0 F9000 X112.497 Y15.199
G1 F1125 X174.299 Y77.001 E1178.94842
G0 F9000 X174.299 Y74.739
G1 F1125 X114.76 Y15.199 E1185.66975
G0 F9000 X117.023 Y15.199
G1 F1125 X174.299 Y72.476 E1192.13562
G0 F9000 X174.299 Y70.213
G1 F1125 X119.286 Y15.199 E1198.34602
G0 F9000 X121.548 Y15.199
G1 F1125 X174.299 Y67.95 E1204.30101
G0 F9000 X174.299 Y65.688
G1 F1125 X123.811 Y15.199 E1210.00058
G0 F9000 X126.074 Y15.199
G1 F1125 X174.299 Y63.425 E1215.4447
G0 F9000 X174.299 Y61.162
G1 F1125 X128.337 Y15.199 E1220.63334
G0 F9000 X130.599 Y15.199
G1 F1125 X174.299 Y58.899 E1225.56657
G0 F9000 X174.299 Y56.637
G1 F1125 X132.862 Y15.199 E1230.2444
G0 F9000 X135.125 Y15.199
G1 F1125 X174.299 Y54.374 E1234.66675
G0 F9000 X174.299 Y52.111
G1 F1125 X137.388 Y15.199 E1238.83364
G0 F9000 X139.65 Y15.199
G1 F1125 X174.299 Y49.848 E1242.74512
G0 F9000 X174.299 Y47.586
G1 F1125 X141.913 Y15.199 E1246.40119
G0 F9000 X144.176 Y15.199
G1 F1125 X174.299 Y45.323 E1249.80179
G0 F9000 X174.299 Y43.06
G1 F1125 X146.438 Y15.199 E1252.94698
G0 F9000 X148.701 Y15.199
G1 F1125 X174.299 Y40.797 E1255.8367
G0 F9000 X174.299 Y38.535
G1 F1125 X150.964 Y15.199 E1258.47102
G0 F9000 X153.227 Y15.199
G1 F1125 X174.299 Y36.272 E1260.84986
G0 F9000 X174.299 Y34.009
G1 F1125 X155.489 Y15.199 E1262.9733
G0 F9000 X157.752 Y15.199
G1 F1125 X174.299 Y31.746 E1264.84127
G0 F9000 X174.299 Y29.484
G1 F1125 X160.015 Y15.199 E1266.45382
G0 F9000 X162.278 Y15.199
G1 F1125 X174.299 Y27.221 E1267.81091
G0 F9000 X174.299 Y24.958
G1 F1125 X164.54 Y15.199 E1268.9126
G0 F9000 X166.857 Y15.253
G1 F1125 X174.242 Y22.638 E1269.74628
G0 F9000 X173.128 Y19.262
G1 F1125 X170.252 Y16.385 E1270.071
G1 F1500 E1263.571
G0 F300 X170.252 Y16.385 Z0.54
G0 F9000 X170.692 Y14.943
G0 X169.197 Y14.28
G0 X167.541 Y13.862
G0 X166.012 Y13.736
G0 X53.245 Y13.771
G0 X51.829 Y13.988
G0 X50.261 Y14.484
G0 X48.746 Y15.275
G0 X47.344 Y16.363
G0 X46.188 Y17.654
G0 X45.766 Y18.307
G0 X45.211 Y19.258
G0 X46.492 Y19.975
;TIME_ELAPSED:876.085821
;LAYER:-5
;TYPE:SUPPORT
G1 F1500 E1270.071
G1 F1125 X50.477 Y15.99 E1270.63333
G1 X49.822 Y16.332 E1270.70706
G1 X49.44 Y16.571 E1270.75202
G1 X49.096 Y16.81 E1270.79381
G1 X48.744 Y17.082 E1270.8382
G1 X48.329 Y17.447 E1270.89335
G1 X47.922 Y17.855 E1270.95085
G1 X47.651 Y18.162 E1270.99171
G1 X47.258 Y18.669 E1271.05572
G1 X46.934 Y19.151 E1271.11367
G1 X46.777 Y19.417 E1271.14449
G1 X46.526 Y19.9 E1271.1988
G1 X46.348 Y20.296 E1271.24212
G1 X46.159 Y20.796 E1271.29546
G1 X45.992 Y21.332 E1271.35148
G1 X45.819 Y22.062 E1271.42633
G1 X52.553 Y15.329 E1272.3765
G1 X53.368 Y15.228 E1272.45844
G1 X54.096 Y15.199 E1272.53114
G1 X45.7 Y23.596 E1273.71598
G1 X45.7 Y25.01 E1273.85707
G1 X55.51 Y15.199 E1275.24144
G1 X56.924 Y15.199 E1275.38253
G1 X45.7 Y26.424 E1276.96642
G1 X45.7 Y27.838 E1277.10751
