;FLAVOR:Marlin
;TIME:18517
;Filament used: 13.5547m
;Layer height: 0.2
;MINX:48.335
;MINY:64.836
;MINZ:0.2
;MAXX:171.665
;MAXY:155.165
;MAXZ:12.4
;Generated with Cura_SteamEngine main
M140 S60
M105
M190 S60
M104 S200
M105
M109 S200
M82 ;absolute extrusion mode
; Ender 3 Custom Start G-code
G92 E0 ; Reset Extruder
G28 ; Home all axes
G29 ; BLTouch 
G1 Z2.0 F3000 ; Move Z Axis up little to prevent scratching of Heat Bed
G1 X0.1 Y20 Z0.3 F5000.0 ; Move to start position
G1 X0.1 Y200.0 Z0.3 F1500.0 E15 ; Draw the first line
G1 X0.4 Y200.0 Z0.3 F5000.0 ; Move to side a little
G1 X0.4 Y20 Z0.3 F1500.0 E30 ; Draw the second line
G92 E0 ; Reset Extruder
G1 Z2.0 F3000 ; Move Z Axis up little to prevent scratching of Heat Bed
G1 X5 Y20 Z0.3 F5000.0 ; Move over to prevent blob squish
G92 E0
G92 E0
G1 F1500 E-6.5
;LAYER_COUNT:62
;LAYER:0
M107
G0 F6000 X68.012 Y104.657 Z0.2
G0 X68.273 Y105.041
G0 X65.576 Y108.212
G0 X65.063 Y108.28
;TYPE:SKIRT
G1 F1500 E0
G1 F1200 X64.921 Y108.698 E0.01468
G1 X64.798 Y109.151 E0.0303
G1 X64.706 Y109.596 E0.04541
G1 X64.633 Y110.153 E0.06409
G1 X64.607 Y110.618 E0.07958
G1 X64.61 Y111.084 E0.09508
G1 X64.64 Y111.531 E0.10998
G1 X64.7 Y111.999 E0.12568
G1 X64.789 Y112.459 E0.14126
G1 X64.916 Y112.941 E0.15784
G1 X65.057 Y113.363 E0.17264
G1 X65.254 Y113.842 E0.18986
G1 X65.465 Y114.269 E0.20571
G1 X65.705 Y114.686 E0.22171
G1 X65.949 Y115.054 E0.23639
G1 X66.267 Y115.469 E0.25378
G1 X66.576 Y115.819 E0.26931
G1 X66.905 Y116.148 E0.28479
G1 X67.247 Y116.451 E0.29998
G1 X67.655 Y116.766 E0.31713
G1 X68.035 Y117.02 E0.33233
G1 X68.494 Y117.283 E0.34992
G1 X68.908 Y117.483 E0.36522
G1 X69.323 Y117.654 E0.38015
G1 X69.767 Y117.807 E0.39577
G1 X70.273 Y117.943 E0.41319
G1 X70.706 Y118.028 E0.42787
G1 X71.2 Y118.092 E0.44444
G1 X71.662 Y118.121 E0.45983
G1 X72.138 Y118.121 E0.47567
G1 X72.6 Y118.092 E0.49106
G1 X73.094 Y118.028 E0.50763
G1 X73.527 Y117.943 E0.52231
G1 X74.033 Y117.807 E0.53973
G1 X74.477 Y117.654 E0.55535
G1 X74.892 Y117.483 E0.57028
G1 X75.308 Y117.282 E0.58565
G1 X75.773 Y117.015 E0.60348
G1 X76.15 Y116.762 E0.61858
G1 X76.56 Y116.444 E0.63584
G1 X76.908 Y116.134 E0.65134
G1 X77.213 Y115.83 E0.66566
G1 X77.517 Y115.49 E0.68083
G1 X77.864 Y115.037 E0.69981
G1 X78.11 Y114.661 E0.71476
G1 X78.34 Y114.258 E0.73019
G1 X78.548 Y113.835 E0.74587
G1 X78.734 Y113.386 E0.76203
G1 X78.876 Y112.97 E0.77665
G1 X79.017 Y112.433 E0.79512
G1 X79.103 Y111.968 E0.81085
G1 X79.15 Y111.608 E0.82292
G1 X79.198 Y111.972 E0.83513
G1 X79.284 Y112.436 E0.85083
G1 X79.425 Y112.973 E0.8693
G1 X79.567 Y113.388 E0.88388
G1 X79.752 Y113.835 E0.89998
G1 X79.96 Y114.258 E0.91565
G1 X80.19 Y114.661 E0.93109
G1 X80.436 Y115.037 E0.94603
G1 X80.783 Y115.49 E0.96501
G1 X81.087 Y115.83 E0.98018
G1 X81.392 Y116.134 E0.9945
G1 X81.74 Y116.444 E1.01
G1 X82.15 Y116.762 E1.02726
G1 X82.527 Y117.015 E1.04236
G1 X82.992 Y117.282 E1.0602
G1 X83.408 Y117.483 E1.07556
G1 X83.823 Y117.654 E1.09049
G1 X84.267 Y117.807 E1.10611
G1 X84.773 Y117.943 E1.12354
G1 X85.206 Y118.028 E1.13821
G1 X85.7 Y118.092 E1.15478
G1 X86.162 Y118.121 E1.17018
G1 X86.638 Y118.121 E1.18601
G1 X87.1 Y118.092 E1.20141
G1 X87.594 Y118.028 E1.21797
G1 X88.027 Y117.943 E1.23265
G1 X88.533 Y117.807 E1.25008
G1 X88.977 Y117.654 E1.2657
G1 X89.392 Y117.482 E1.28064
G1 X89.81 Y117.28 E1.29608
G1 X90.281 Y117.01 E1.31414
G1 X90.649 Y116.762 E1.3289
G1 X91.044 Y116.456 E1.34552
G1 X91.401 Y116.14 E1.36137
G1 X91.718 Y115.824 E1.37626
G1 X92.022 Y115.483 E1.39145
G1 X92.378 Y115.017 E1.41096
G1 X92.621 Y114.641 E1.42585
G1 X92.826 Y114.281 E1.43963
G1 X93.03 Y113.874 E1.45477
G1 X93.23 Y113.397 E1.47197
G1 X93.378 Y112.963 E1.48722
G1 X93.512 Y112.456 E1.50467
G1 X93.602 Y111.989 E1.52049
G1 X93.664 Y111.504 E1.53675
G1 X93.692 Y111.051 E1.55184
G1 X93.691 Y110.564 E1.56804
G1 X93.661 Y110.114 E1.58304
G1 X93.597 Y109.63 E1.59928
G1 X93.512 Y109.2 E1.61386
G1 X93.389 Y108.735 E1.62986
G1 X93.236 Y108.276 E1.64595
G1 X93.037 Y107.792 E1.66335
G1 X92.84 Y107.394 E1.67812
G1 X92.567 Y106.93 E1.69603
G1 X92.3 Y106.541 E1.71172
G1 X92.044 Y106.209 E1.72567
G1 X91.755 Y105.874 E1.74038
G1 X91.371 Y105.488 E1.75849
G1 X91.027 Y105.189 E1.77365
G1 X90.653 Y104.903 E1.78931
G1 X90.275 Y104.649 E1.80446
G1 X89.846 Y104.399 E1.82097
G1 X89.425 Y104.19 E1.8366
G1 X88.947 Y103.992 E1.85381
G1 X88.522 Y103.849 E1.86873
G1 X88.073 Y103.728 E1.88419
G1 X87.634 Y103.638 E1.8991
G1 X87.115 Y103.569 E1.91651
G1 X86.634 Y103.538 E1.93254
G1 X86.106 Y103.541 E1.95011
G1 X85.652 Y103.575 E1.96525
G1 X85.18 Y103.64 E1.98109
G1 X84.732 Y103.731 E1.9963
G1 X84.319 Y103.839 E2.0105
G1 X83.914 Y103.97 E2.02466
G1 X83.38 Y104.189 E2.04385
G1 X82.943 Y104.408 E2.06011
G1 X82.565 Y104.625 E2.07461
G1 X82.186 Y104.873 E2.08967
G1 X81.745 Y105.211 E2.10815
G1 X81.407 Y105.511 E2.12318
G1 X81.092 Y105.825 E2.13798
G1 X80.789 Y106.165 E2.15312
G1 X80.482 Y106.559 E2.16974
G1 X80.222 Y106.942 E2.18513
G1 X79.945 Y107.422 E2.20356
G1 X79.741 Y107.844 E2.21915
G1 X79.554 Y108.307 E2.23576
G1 X79.415 Y108.728 E2.25051
G1 X79.299 Y109.162 E2.26545
G1 X79.209 Y109.605 E2.28049
G1 X79.15 Y110.039 E2.29505
G1 X79.093 Y109.615 E2.30928
G1 X79.006 Y109.181 E2.324
G1 X78.885 Y108.726 E2.33966
G1 X78.739 Y108.288 E2.35502
G1 X78.554 Y107.834 E2.37133
G1 X78.354 Y107.421 E2.38659
G1 X78.072 Y106.933 E2.40533
G1 X77.811 Y106.551 E2.42072
G1 X77.54 Y106.201 E2.43544
G1 X77.246 Y105.863 E2.45034
G1 X76.884 Y105.499 E2.46742
G1 X76.528 Y105.187 E2.48316
G1 X76.127 Y104.88 E2.49996
G1 X75.775 Y104.646 E2.51402
G1 X75.377 Y104.415 E2.52932
G1 X74.947 Y104.199 E2.54533
G1 X74.438 Y103.988 E2.56366
G1 X73.98 Y103.836 E2.57971
G1 X73.491 Y103.71 E2.5965
G1 X73.064 Y103.629 E2.61096
G1 X72.627 Y103.572 E2.62561
G1 X72.179 Y103.54 E2.64055
G1 X71.653 Y103.539 E2.65805
G1 X71.177 Y103.571 E2.67391
G1 X70.702 Y103.633 E2.68985
G1 X70.273 Y103.717 E2.70439
G1 X69.775 Y103.85 E2.72153
G1 X69.327 Y104.003 E2.73728
G1 X68.876 Y104.19 E2.75352
G1 X68.47 Y104.39 E2.76857
G1 X68.012 Y104.657 E2.7862
G1 X67.634 Y104.914 E2.8014
G1 X67.299 Y105.17 E2.81543
G1 X66.95 Y105.469 E2.83071
G1 X66.537 Y105.881 E2.85012
G1 X66.236 Y106.232 E2.86549
G1 X65.965 Y106.59 E2.88043
G1 X65.719 Y106.957 E2.89512
G1 X65.475 Y107.377 E2.91128
G1 X65.261 Y107.806 E2.92722
G1 X65.063 Y108.28 E2.94431
G0 F6000 X65.006 Y110.64
G1 F1200 X65.009 Y111.058 E2.95821
G1 X65.039 Y111.505 E2.97311
G1 X65.093 Y111.923 E2.98713
G1 X65.182 Y112.383 E3.00271
G1 X65.295 Y112.814 E3.01753
G1 X65.436 Y113.236 E3.03233
G1 X65.613 Y113.665 E3.04777
G1 X65.824 Y114.092 E3.06361
G1 X66.038 Y114.465 E3.07791
G1 X66.282 Y114.833 E3.0926
G1 X66.567 Y115.204 E3.10816
G1 X66.876 Y115.554 E3.12369
G1 X67.17 Y115.849 E3.13754
G1 X67.512 Y116.152 E3.15274
G1 X67.878 Y116.434 E3.1681
G1 X68.258 Y116.688 E3.18331
G1 X68.668 Y116.922 E3.19901
G1 X69.082 Y117.122 E3.2143
G1 X69.453 Y117.275 E3.22765
G1 X69.897 Y117.428 E3.24327
G1 X70.35 Y117.55 E3.25887
G1 X70.783 Y117.635 E3.27355
G1 X71.225 Y117.692 E3.28837
G1 X71.687 Y117.721 E3.30377
G1 X72.113 Y117.721 E3.31794
G1 X72.575 Y117.692 E3.33333
G1 X73.017 Y117.635 E3.34815
G1 X73.45 Y117.55 E3.36283
G1 X73.903 Y117.428 E3.37843
G1 X74.347 Y117.275 E3.39405
G1 X74.718 Y117.122 E3.4074
G1 X75.134 Y116.921 E3.42277
G1 X75.55 Y116.683 E3.43871
G1 X75.927 Y116.43 E3.45381
G1 X76.294 Y116.146 E3.46924
G1 X76.642 Y115.836 E3.48475
G1 X76.915 Y115.563 E3.49759
G1 X77.219 Y115.223 E3.51276
G1 X77.529 Y114.818 E3.52972
G1 X77.775 Y114.442 E3.54466
G1 X77.981 Y114.081 E3.55849
G1 X78.189 Y113.658 E3.57417
G1 X78.356 Y113.256 E3.58865
G1 X78.498 Y112.84 E3.60327
G1 X78.623 Y112.36 E3.61976
G1 X78.709 Y111.895 E3.63549
G1 X78.755 Y111.547 E3.64717
G1 X78.79 Y111.107 E3.66185
G1 X78.792 Y110.594 E3.67891
G1 X78.758 Y110.119 E3.69475
G1 X78.701 Y109.694 E3.70901
G1 X78.614 Y109.26 E3.72373
G1 X78.506 Y108.853 E3.73774
G1 X78.36 Y108.415 E3.75309
G1 X78.194 Y108.008 E3.76771
G1 X77.994 Y107.595 E3.78298
G1 X77.741 Y107.159 E3.79974
G1 X77.48 Y106.777 E3.81513
G1 X77.238 Y106.464 E3.82829
G1 X76.944 Y106.126 E3.84319
G1 X76.62 Y105.8 E3.85848
G1 X76.264 Y105.488 E3.87422
G1 X75.905 Y105.214 E3.88924
G1 X75.553 Y104.98 E3.9033
G1 X75.197 Y104.773 E3.917
G1 X74.767 Y104.557 E3.933
G1 X74.312 Y104.368 E3.94939
G1 X73.854 Y104.216 E3.96544
G1 X73.417 Y104.103 E3.98045
G1 X72.99 Y104.022 E3.99491
G1 X72.598 Y103.971 E4.00805
G1 X72.15 Y103.939 E4.02299
G1 X71.68 Y103.938 E4.03862
G1 X71.204 Y103.97 E4.05449
G1 X70.779 Y104.025 E4.06875
G1 X70.35 Y104.109 E4.08328
G1 X69.904 Y104.228 E4.09864
G1 X69.456 Y104.381 E4.11438
G1 X69.053 Y104.549 E4.12891
G1 X68.647 Y104.749 E4.14396
G1 X68.237 Y104.987 E4.15973
G1 X67.859 Y105.244 E4.17493
G1 X67.559 Y105.474 E4.1875
G1 X67.21 Y105.773 E4.20279
G1 X66.841 Y106.142 E4.22014
G1 X66.54 Y106.493 E4.23552
G1 X66.297 Y106.813 E4.24889
G1 X66.051 Y107.18 E4.26358
G1 X65.833 Y107.555 E4.27801
G1 X65.619 Y107.984 E4.29395
G1 X65.442 Y108.408 E4.30924
G1 X65.3 Y108.826 E4.32392
G1 X65.189 Y109.232 E4.33792
G1 X65.097 Y109.677 E4.35303
G1 X65.032 Y110.175 E4.36974
G1 X65.006 Y110.64 E4.38523
G0 F6000 X65.406 Y110.663
G1 F1200 X65.408 Y111.031 E4.39747
G1 X65.438 Y111.478 E4.41237
G1 X65.486 Y111.847 E4.42474
G1 X65.575 Y112.307 E4.44033
G1 X65.675 Y112.688 E4.45343
G1 X65.816 Y113.11 E4.46823
G1 X65.971 Y113.488 E4.48182
G1 X66.182 Y113.915 E4.49766
G1 X66.372 Y114.244 E4.51029
G1 X66.616 Y114.612 E4.52498
G1 X66.867 Y114.94 E4.53872
G1 X67.176 Y115.29 E4.55424
G1 X67.436 Y115.549 E4.56645
G1 X67.778 Y115.852 E4.58165
G1 X68.1 Y116.101 E4.59519
G1 X68.48 Y116.355 E4.61039
G1 X68.842 Y116.562 E4.62426
G1 X69.256 Y116.762 E4.63955
G1 X69.584 Y116.897 E4.65135
G1 X70.028 Y117.05 E4.66697
G1 X70.427 Y117.158 E4.68072
G1 X70.86 Y117.243 E4.69539
G1 X71.25 Y117.293 E4.70847
G1 X71.712 Y117.322 E4.72387
G1 X72.088 Y117.322 E4.73637
G1 X72.55 Y117.293 E4.75177
G1 X72.94 Y117.243 E4.76485
G1 X73.373 Y117.158 E4.77952
G1 X73.772 Y117.05 E4.79327
G1 X74.216 Y116.897 E4.80889
G1 X74.544 Y116.762 E4.82069
G1 X74.96 Y116.561 E4.83605
G1 X75.327 Y116.351 E4.85012
G1 X75.704 Y116.098 E4.86522
G1 X76.027 Y115.847 E4.87882
G1 X76.375 Y115.537 E4.89432
G1 X76.616 Y115.297 E4.90564
G1 X76.92 Y114.957 E4.92081
G1 X77.194 Y114.599 E4.9358
G1 X77.44 Y114.223 E4.95075
G1 X77.622 Y113.905 E4.96293
G1 X77.83 Y113.482 E4.97861
G1 X77.977 Y113.127 E4.99139
G1 X78.119 Y112.711 E5.00601
G1 X78.23 Y112.288 E5.02056
G1 X78.316 Y111.823 E5.03628
G1 X78.357 Y111.515 E5.04662
G1 X78.392 Y111.075 E5.0613
G1 X78.393 Y110.623 E5.07633
G1 X78.359 Y110.148 E5.09217
G1 X78.308 Y109.772 E5.10479
G1 X78.221 Y109.338 E5.11951
G1 X78.126 Y108.979 E5.13187
G1 X77.98 Y108.541 E5.14722
G1 X77.834 Y108.182 E5.16011
G1 X77.634 Y107.769 E5.17537
G1 X77.411 Y107.385 E5.19014
G1 X77.15 Y107.003 E5.20553
G1 X76.937 Y106.726 E5.21715
G1 X76.643 Y106.388 E5.23205
G1 X76.356 Y106.101 E5.24555
G1 X76 Y105.789 E5.2613
G1 X75.684 Y105.547 E5.27453
G1 X75.332 Y105.313 E5.28859
G1 X75.018 Y105.13 E5.30068
G1 X74.588 Y104.914 E5.31669
G1 X74.186 Y104.748 E5.33115
G1 X73.728 Y104.596 E5.3472
G1 X73.342 Y104.496 E5.36046
G1 X72.915 Y104.415 E5.37492
G1 X72.57 Y104.37 E5.38649
G1 X72.122 Y104.338 E5.40143
G1 X71.707 Y104.337 E5.41523
G1 X71.231 Y104.369 E5.4311
G1 X70.856 Y104.418 E5.44368
G1 X70.427 Y104.502 E5.45822
G1 X70.033 Y104.607 E5.47178
G1 X69.585 Y104.76 E5.48753
G1 X69.229 Y104.908 E5.50035
G1 X68.823 Y105.108 E5.5154
G1 X68.462 Y105.318 E5.52929
G1 X68.084 Y105.575 E5.5445
G1 X67.819 Y105.778 E5.5556
G1 X67.47 Y106.077 E5.57088
G1 X67.145 Y106.402 E5.58617
G1 X66.844 Y106.753 E5.60155
G1 X66.629 Y107.036 E5.61337
G1 X66.383 Y107.403 E5.62807
G1 X66.19 Y107.734 E5.64081
G1 X65.976 Y108.163 E5.65675
G1 X65.82 Y108.537 E5.67023
G1 X65.678 Y108.955 E5.68492
G1 X65.581 Y109.313 E5.69725
G1 X65.489 Y109.758 E5.71237
G1 X65.432 Y110.198 E5.72712
G1 X65.406 Y110.663 E5.74261
G0 F6000 X65.805 Y110.685
G1 F1200 X65.807 Y111.004 E5.75322
G1 X65.837 Y111.451 E5.76812
G1 X65.878 Y111.771 E5.77885
G1 X65.967 Y112.231 E5.79444
G1 X66.054 Y112.561 E5.80579
G1 X66.195 Y112.983 E5.82059
G1 X66.33 Y113.311 E5.83238
G1 X66.541 Y113.738 E5.84823
G1 X66.705 Y114.023 E5.85916
G1 X66.949 Y114.391 E5.87385
G1 X67.167 Y114.675 E5.88576
G1 X67.476 Y115.025 E5.90128
G1 X67.701 Y115.25 E5.91187
G1 X68.043 Y115.553 E5.92706
G1 X68.322 Y115.769 E5.9388
G1 X68.702 Y116.023 E5.954
G1 X69.016 Y116.202 E5.96602
G1 X69.43 Y116.402 E5.98132
G1 X69.714 Y116.519 E5.99153
G1 X70.158 Y116.672 E6.00715
G1 X70.504 Y116.765 E6.01907
G1 X70.937 Y116.85 E6.03374
G1 X71.275 Y116.894 E6.04508
G1 X71.737 Y116.923 E6.06048
G1 X72.063 Y116.923 E6.07132
G1 X72.525 Y116.894 E6.08672
G1 X72.863 Y116.85 E6.09805
G1 X73.296 Y116.765 E6.11273
G1 X73.642 Y116.672 E6.12465
G1 X74.086 Y116.519 E6.14027
G1 X74.37 Y116.402 E6.15048
G1 X74.786 Y116.201 E6.16585
G1 X75.104 Y116.019 E6.17804
G1 X75.481 Y115.766 E6.19314
G1 X75.761 Y115.548 E6.20494
G1 X76.109 Y115.238 E6.22044
G1 X76.318 Y115.03 E6.23025
G1 X76.622 Y114.69 E6.24542
G1 X76.86 Y114.38 E6.25842
G1 X77.106 Y114.004 E6.27336
G1 X77.263 Y113.728 E6.28392
G1 X77.471 Y113.305 E6.2996
G1 X77.599 Y112.998 E6.31066
G1 X77.741 Y112.582 E6.32528
G1 X77.837 Y112.215 E6.3379
G1 X77.923 Y111.75 E6.35363
G1 X77.958 Y111.483 E6.36258
G1 X77.993 Y111.043 E6.37727
G1 X77.994 Y110.651 E6.3903
G1 X77.96 Y110.176 E6.40614
G1 X77.916 Y109.851 E6.41705
G1 X77.829 Y109.417 E6.43177
G1 X77.747 Y109.106 E6.44247
G1 X77.601 Y108.668 E6.45783
G1 X77.474 Y108.357 E6.469
G1 X77.274 Y107.944 E6.48426
G1 X77.081 Y107.61 E6.49709
G1 X76.82 Y107.228 E6.51248
G1 X76.635 Y106.989 E6.52253
G1 X76.341 Y106.651 E6.53743
G1 X76.093 Y106.402 E6.54912
G1 X75.737 Y106.09 E6.56486
G1 X75.462 Y105.88 E6.57637
G1 X75.11 Y105.646 E6.59043
G1 X74.838 Y105.488 E6.60089
G1 X74.408 Y105.272 E6.6169
G1 X74.06 Y105.127 E6.62944
G1 X73.602 Y104.975 E6.64549
G1 X73.268 Y104.889 E6.65696
G1 X72.841 Y104.808 E6.67141
G1 X72.541 Y104.769 E6.68148
G1 X72.093 Y104.737 E6.69641
G1 X71.734 Y104.736 E6.70835
G1 X71.258 Y104.768 E6.72422
G1 X70.932 Y104.81 E6.73515
G1 X70.503 Y104.894 E6.74969
G1 X70.163 Y104.986 E6.76141
G1 X69.715 Y105.139 E6.77716
G1 X69.406 Y105.267 E6.78828
G1 X69 Y105.467 E6.80333
G1 X68.687 Y105.649 E6.81537
G1 X68.309 Y105.906 E6.83058
G1 X68.079 Y106.082 E6.84021
G1 X67.73 Y106.381 E6.8555
G1 X67.448 Y106.662 E6.86874
G1 X67.147 Y107.013 E6.88412
G1 X66.961 Y107.258 E6.89435
G1 X66.715 Y107.625 E6.90904
G1 X66.548 Y107.912 E6.92009
G1 X66.334 Y108.341 E6.93603
G1 X66.199 Y108.666 E6.94774
G1 X66.057 Y109.084 E6.96242
G1 X65.973 Y109.394 E6.9731
G1 X65.881 Y109.839 E6.98822
G1 X65.831 Y110.22 E7.001
G1 X65.805 Y110.685 E7.01649
G0 F6000 X66.204 Y110.707
G1 F1200 X66.206 Y110.977 E7.02547
G1 X66.236 Y111.424 E7.04037
G1 X66.271 Y111.695 E7.04946
G1 X66.36 Y112.155 E7.06504
G1 X66.433 Y112.434 E7.07463
G1 X66.574 Y112.856 E7.08943
G1 X66.689 Y113.134 E7.09944
G1 X66.9 Y113.561 E7.11528
G1 X67.038 Y113.802 E7.12451
G1 X67.282 Y114.17 E7.1392
G1 X67.467 Y114.41 E7.14928
G1 X67.776 Y114.76 E7.16481
G1 X67.966 Y114.951 E7.17377
G1 X68.308 Y115.254 E7.18896
G1 X68.544 Y115.436 E7.19888
G1 X68.924 Y115.69 E7.21408
G1 X69.19 Y115.842 E7.22427
G1 X69.604 Y116.042 E7.23956
G1 X69.844 Y116.141 E7.2482
G1 X70.288 Y116.294 E7.26382
G1 X70.581 Y116.373 E7.27391
G1 X71.014 Y116.458 E7.28859
G1 X71.3 Y116.495 E7.29818
G1 X71.762 Y116.524 E7.31357
G1 X72.038 Y116.524 E7.32275
G1 X72.5 Y116.495 E7.33815
G1 X72.786 Y116.458 E7.34774
G1 X73.219 Y116.373 E7.36242
G1 X73.512 Y116.294 E7.37251
G1 X73.956 Y116.141 E7.38813
G1 X74.196 Y116.042 E7.39677
G1 X74.612 Y115.841 E7.41213
G1 X74.881 Y115.687 E7.42244
G1 X75.258 Y115.434 E7.43754
G1 X75.495 Y115.25 E7.44752
G1 X75.843 Y114.94 E7.46302
G1 X76.02 Y114.763 E7.47135
G1 X76.324 Y114.423 E7.48652
G1 X76.525 Y114.161 E7.4975
G1 X76.771 Y113.785 E7.51245
G1 X76.904 Y113.552 E7.52137
G1 X77.112 Y113.129 E7.53705
G1 X77.22 Y112.869 E7.54641
G1 X77.362 Y112.453 E7.56103
G1 X77.443 Y112.142 E7.57172
G1 X77.55 Y111.563 E7.5913
G1 X77.594 Y111.011 E7.60972
