;FLAVOR:Marlin
;TIME:5840
;Filament used: 3.44334m
;Layer height: 0.2
;MINX:68.835
;MINY:88.335
;MINZ:0.2
;MAXX:151.165
;MAXY:131.665
;MAXZ:22.4
;Generated with Cura_SteamEngine main
M140 S60
M105
M190 S60
M104 S200
M105
M109 S200
M82 ;absolute extrusion mode
; Ender 3 Custom Start G-code
G92 E0 ; Reset Extruder
G28 ; Home all axes
G29 ; BLTouch 
G1 Z2.0 F3000 ; Move Z Axis up little to prevent scratching of Heat Bed
G1 X0.1 Y20 Z0.3 F5000.0 ; Move to start position
G1 X0.1 Y200.0 Z0.3 F1500.0 E15 ; Draw the first line
G1 X0.4 Y200.0 Z0.3 F5000.0 ; Move to side a little
G1 X0.4 Y20 Z0.3 F1500.0 E30 ; Draw the second line
G92 E0 ; Reset Extruder
G1 Z2.0 F3000 ; Move Z Axis up little to prevent scratching of Heat Bed
G1 X5 Y20 Z0.3 F5000.0 ; Move over to prevent blob squish
G92 E0
G92 E0
G1 F1500 E-6.5
;LAYER_COUNT:112
;LAYER:0
M107
G0 F6000 X143.658 Y95.301 Z0.2
G0 X143.605 Y95.486
;TYPE:SKIRT
G1 F1500 E0
G1 F1200 X143.658 Y95.301 E0.0064
G1 X143.839 Y95.137 E0.01452
G1 X144.003 Y95.104 E0.02009
G1 X144.208 Y95.163 E0.02718
G1 X144.359 Y95.332 E0.03472
G1 X144.397 Y95.489 E0.04009
G1 X144.373 Y95.632 E0.04492
G1 X144.291 Y95.769 E0.05023
G1 X144.135 Y95.873 E0.05646
G1 X143.969 Y95.895 E0.06203
G1 X143.798 Y95.84 E0.06801
G1 X143.63 Y95.642 E0.07664
G1 X143.605 Y95.486 E0.0819
G0 F6000 X143.216 Y95.647
G1 F1200 X143.234 Y95.282 E0.09405
G1 X143.302 Y95.117 E0.09999
G1 X143.464 Y94.911 E0.10871
G1 X143.759 Y94.74 E0.12005
G1 X143.939 Y94.705 E0.12615
G1 X144.194 Y94.728 E0.13466
G1 X144.434 Y94.832 E0.14336
G1 X144.676 Y95.077 E0.15481
G1 X144.779 Y95.333 E0.16399
G1 X144.793 Y95.577 E0.17212
G1 X144.674 Y95.925 E0.18435
G1 X144.506 Y96.115 E0.19279
G1 X144.191 Y96.274 E0.20452
G1 X143.937 Y96.295 E0.213
G1 X143.761 Y96.26 E0.21897
G1 X143.463 Y96.088 E0.23041
G1 X143.351 Y95.961 E0.23605
G1 X143.216 Y95.647 E0.24741
G0 F6000 X142.805 Y95.444
G1 F1200 X142.889 Y95.056 E0.26062
G1 X143.048 Y94.759 E0.27182
G1 X143.342 Y94.487 E0.28514
G1 X143.646 Y94.355 E0.29617
G1 X143.896 Y94.307 E0.30463
G1 X144.163 Y94.314 E0.31352
G1 X144.416 Y94.377 E0.32219
G1 X144.717 Y94.528 E0.33339
G1 X144.992 Y94.814 E0.34659
G1 X145.132 Y95.11 E0.35748
G1 X145.205 Y95.432 E0.36846
G1 X145.168 Y95.762 E0.3795
G1 X145.086 Y96.002 E0.38794
G1 X144.947 Y96.233 E0.39691
G1 X144.719 Y96.468 E0.4078
G1 X144.416 Y96.623 E0.41912
G1 X144.167 Y96.686 E0.42766
G1 X143.897 Y96.693 E0.43664
G1 X143.644 Y96.643 E0.44522
G1 X143.403 Y96.537 E0.45398
G1 X143.185 Y96.378 E0.46295
G1 X143.022 Y96.19 E0.47123
G1 X142.889 Y95.947 E0.48044
G1 X142.821 Y95.715 E0.48848
G1 X142.805 Y95.444 E0.49751
G0 F6000 X142.391 Y95.503
G1 F1200 X142.465 Y95.056 E0.51258
G1 X142.596 Y94.737 E0.52405
G1 X142.796 Y94.451 E0.53566
G1 X143.118 Y94.15 E0.55032
G1 X143.527 Y93.973 E0.56514
G1 X143.861 Y93.908 E0.57646
G1 X144.221 Y93.918 E0.58844
G1 X144.65 Y94.026 E0.60315
G1 X145.011 Y94.262 E0.61749
G1 X145.265 Y94.523 E0.62961
G1 X145.491 Y94.891 E0.64397
G1 X145.608 Y95.413 E0.66176
G1 X145.551 Y95.932 E0.67913
G1 X145.36 Y96.339 E0.69408
G1 X145.091 Y96.684 E0.70863
G1 X144.716 Y96.928 E0.72351
G1 X144.309 Y97.081 E0.73798
G1 X143.866 Y97.092 E0.75271
G1 X143.522 Y97.025 E0.76437
G1 X143.119 Y96.848 E0.77901
G1 X142.796 Y96.551 E0.7936
G1 X142.596 Y96.261 E0.80532
G1 X142.459 Y95.926 E0.81736
G1 X142.391 Y95.503 E0.83161
G0 F6000 X142.005 Y95.606
G1 F1200 X142.035 Y95.057 E0.8499
G1 X142.244 Y94.546 E0.86826
G1 X142.496 Y94.185 E0.8829
G1 X142.898 Y93.813 E0.90112
G1 X143.401 Y93.592 E0.91939
G1 X143.834 Y93.508 E0.93406
G1 X144.269 Y93.52 E0.94854
G1 X144.706 Y93.63 E0.96352
G1 X145.198 Y93.88 E0.98188
G1 X145.656 Y94.354 E1.0038
G1 X145.89 Y94.85 E1.02204
G1 X145.987 Y95.278 E1.03664
G1 X145.987 Y95.713 E1.05111
G1 X145.891 Y96.145 E1.06583
G1 X145.698 Y96.555 E1.0809
G1 X145.363 Y96.982 E1.09895
G1 X144.912 Y97.278 E1.11689
G1 X144.695 Y97.374 E1.12478
G1 X144.277 Y97.48 E1.13913
G1 X143.834 Y97.492 E1.15387
G1 X143.405 Y97.408 E1.16841
G1 X143.005 Y97.232 E1.18294
G1 X142.553 Y96.901 E1.20157
G1 X142.178 Y96.356 E1.22358
G1 X142.03 Y95.841 E1.2414
G1 X142.005 Y95.606 E1.24926
G0 F6000 X141.605 Y95.377
G1 F1200 X141.635 Y95.101 E1.25849
G1 X141.691 Y94.847 E1.26714
G1 X141.774 Y94.606 E1.27562
G1 X141.892 Y94.356 E1.28482
G1 X142.023 Y94.143 E1.29313
G1 X142.273 Y93.821 E1.30669
G1 X142.576 Y93.569 E1.3198
G1 X142.804 Y93.419 E1.32888
G1 X143.037 Y93.302 E1.33755
G1 X143.288 Y93.208 E1.34646
G1 X143.531 Y93.148 E1.35479
G1 X143.799 Y93.109 E1.3638
G1 X144.066 Y93.102 E1.37268
G1 X144.326 Y93.123 E1.38136
G1 X144.59 Y93.175 E1.39031
G1 X144.841 Y93.252 E1.39904
G1 X145.082 Y93.358 E1.40779
G1 X145.308 Y93.489 E1.41648
G1 X145.526 Y93.648 E1.42546
G1 X145.716 Y93.824 E1.43407
G1 X145.9 Y94.034 E1.44336
G1 X146.043 Y94.241 E1.45173
G1 X146.169 Y94.474 E1.46054
G1 X146.268 Y94.719 E1.46932
G1 X146.34 Y94.972 E1.47807
G1 X146.384 Y95.233 E1.48688
G1 X146.399 Y95.497 E1.49567
G1 X146.377 Y95.893 E1.50886
G1 X146.268 Y96.281 E1.52227
G1 X146.172 Y96.517 E1.53074
G1 X145.981 Y96.873 E1.54418
G1 X145.727 Y97.164 E1.55703
G1 X145.52 Y97.356 E1.56642
G1 X145.318 Y97.505 E1.57477
G1 X145.089 Y97.637 E1.58356
G1 X144.843 Y97.746 E1.59251
G1 X144.583 Y97.828 E1.60157
G1 X144.332 Y97.877 E1.61008
G1 X144.071 Y97.898 E1.61879
G1 X143.803 Y97.891 E1.6277
G1 X143.544 Y97.855 E1.6364
G1 X143.165 Y97.76 E1.6494
G1 X142.802 Y97.578 E1.6629
G1 X142.581 Y97.434 E1.67168
G1 X142.373 Y97.263 E1.68063
G1 X142.194 Y97.079 E1.68917
G1 X142.032 Y96.872 E1.69791
G1 X141.893 Y96.644 E1.70679
G1 X141.776 Y96.399 E1.71582
G1 X141.648 Y96.03 E1.72882
G1 X141.605 Y95.63 E1.7422
G1 X141.605 Y95.377 E1.75061
G1 F1500 E-4.74939
G0 F6000 X142.244 Y123.546
G1 F1500 E1.75061
G1 F1200 X142.496 Y123.185 E1.76525
G1 X142.898 Y122.813 E1.78347
G1 X143.401 Y122.592 E1.80174
G1 X143.834 Y122.508 E1.81641
G1 X144.269 Y122.52 E1.83089
G1 X144.706 Y122.63 E1.84588
G1 X145.198 Y122.88 E1.86423
G1 X145.656 Y123.354 E1.88615
G1 X145.89 Y123.85 E1.90439
G1 X145.987 Y124.278 E1.91899
G1 X145.987 Y124.713 E1.93346
G1 X145.891 Y125.145 E1.94818
G1 X145.698 Y125.555 E1.96325
G1 X145.363 Y125.982 E1.9813
G1 X144.912 Y126.278 E1.99924
G1 X144.695 Y126.374 E2.00714
G1 X144.277 Y126.48 E2.02148
G1 X143.834 Y126.492 E2.03622
G1 X143.405 Y126.408 E2.05076
G1 X143.005 Y126.232 E2.06529
G1 X142.553 Y125.901 E2.08393
G1 X142.178 Y125.356 E2.10593
G1 X142.03 Y124.841 E2.12375
G1 X142.005 Y124.606 E2.13161
G1 X142.035 Y124.057 E2.1499
G1 X142.244 Y123.546 E2.16826
G0 F6000 X142.391 Y124.503
G1 F1200 X142.465 Y124.056 E2.18333
G1 X142.596 Y123.737 E2.1948
G1 X142.796 Y123.451 E2.20641
G1 X143.118 Y123.15 E2.22107
G1 X143.527 Y122.973 E2.23589
G1 X143.861 Y122.908 E2.24721
G1 X144.221 Y122.918 E2.25919
G1 X144.65 Y123.026 E2.2739
G1 X145.011 Y123.262 E2.28825
G1 X145.265 Y123.523 E2.30036
G1 X145.491 Y123.891 E2.31472
G1 X145.608 Y124.413 E2.33252
G1 X145.551 Y124.932 E2.34988
G1 X145.36 Y125.339 E2.36483
G1 X145.091 Y125.684 E2.37938
G1 X144.716 Y125.928 E2.39427
G1 X144.309 Y126.081 E2.40873
G1 X143.866 Y126.092 E2.42347
G1 X143.522 Y126.025 E2.43512
G1 X143.119 Y125.848 E2.44976
G1 X142.796 Y125.551 E2.46436
G1 X142.596 Y125.261 E2.47607
G1 X142.459 Y124.926 E2.48811
G1 X142.391 Y124.503 E2.50236
G0 F6000 X142.805 Y124.444
G1 F1200 X142.889 Y124.056 E2.51556
G1 X143.048 Y123.759 E2.52677
G1 X143.342 Y123.487 E2.54009
G1 X143.646 Y123.355 E2.55111
G1 X143.896 Y123.307 E2.55958
G1 X144.163 Y123.314 E2.56846
G1 X144.416 Y123.377 E2.57714
G1 X144.717 Y123.528 E2.58834
G1 X144.992 Y123.814 E2.60153
G1 X145.132 Y124.11 E2.61242
G1 X145.205 Y124.432 E2.62341
G1 X145.168 Y124.762 E2.63445
G1 X145.086 Y125.002 E2.64289
G1 X144.947 Y125.233 E2.65185
G1 X144.719 Y125.468 E2.66274
G1 X144.416 Y125.623 E2.67406
G1 X144.167 Y125.686 E2.6826
G1 X143.897 Y125.693 E2.69159
G1 X143.644 Y125.643 E2.70017
G1 X143.403 Y125.537 E2.70892
G1 X143.185 Y125.378 E2.7179
G1 X143.022 Y125.19 E2.72617
G1 X142.889 Y124.947 E2.73539
G1 X142.821 Y124.715 E2.74343
G1 X142.805 Y124.444 E2.75246
G0 F6000 X143.216 Y124.647
G1 F1200 X143.234 Y124.282 E2.76461
G1 X143.302 Y124.117 E2.77055
G1 X143.464 Y123.911 E2.77926
G1 X143.759 Y123.74 E2.7906
G1 X143.939 Y123.705 E2.7967
G1 X144.194 Y123.728 E2.80522
G1 X144.434 Y123.832 E2.81392
G1 X144.676 Y124.077 E2.82537
G1 X144.779 Y124.333 E2.83455
G1 X144.793 Y124.577 E2.84268
G1 X144.674 Y124.925 E2.85491
G1 X144.506 Y125.115 E2.86335
G1 X144.191 Y125.274 E2.87508
G1 X143.937 Y125.295 E2.88356
G1 X143.761 Y125.26 E2.88953
G1 X143.463 Y125.088 E2.90097
G1 X143.351 Y124.961 E2.9066
G1 X143.216 Y124.647 E2.91797
G0 F6000 X143.605 Y124.486
G1 F1200 X143.658 Y124.301 E2.92437
G1 X143.839 Y124.137 E2.9325
G1 X144.003 Y124.104 E2.93806
G1 X144.208 Y124.163 E2.94516
G1 X144.359 Y124.332 E2.95269
G1 X144.397 Y124.489 E2.95807
G1 X144.373 Y124.632 E2.96289
G1 X144.291 Y124.769 E2.9682
G1 X144.135 Y124.873 E2.97444
G1 X143.969 Y124.895 E2.98
G1 X143.798 Y124.84 E2.98598
G1 X143.63 Y124.642 E2.99462
G1 X143.605 Y124.486 E2.99987
G1 F1500 E-3.50013
G0 F6000 X141.605 Y124.377
G1 F1500 E2.99987
G1 F1200 X141.635 Y124.101 E3.0091
G1 X141.691 Y123.847 E3.01776
G1 X141.774 Y123.606 E3.02623
G1 X141.892 Y123.356 E3.03543
G1 X142.023 Y123.143 E3.04375
G1 X142.273 Y122.821 E3.0573
G1 X142.576 Y122.569 E3.07041
G1 X142.804 Y122.419 E3.07949
G1 X143.037 Y122.302 E3.08816
G1 X143.288 Y122.208 E3.09708
G1 X143.531 Y122.148 E3.1054
G1 X143.799 Y122.109 E3.11441
G1 X144.066 Y122.102 E3.12329
G1 X144.326 Y122.123 E3.13197
G1 X144.59 Y122.175 E3.14092
G1 X144.841 Y122.252 E3.14965
G1 X145.082 Y122.358 E3.15841
G1 X145.308 Y122.489 E3.16709
G1 X145.526 Y122.648 E3.17607
G1 X145.716 Y122.824 E3.18468
G1 X145.9 Y123.034 E3.19397
G1 X146.043 Y123.241 E3.20234
G1 X146.169 Y123.474 E3.21115
G1 X146.268 Y123.719 E3.21994
G1 X146.34 Y123.972 E3.22868
G1 X146.384 Y124.233 E3.23749
G1 X146.399 Y124.497 E3.24628
G1 X146.377 Y124.893 E3.25947
G1 X146.268 Y125.281 E3.27288
G1 X146.172 Y125.517 E3.28135
G1 X145.981 Y125.873 E3.29479
G1 X145.727 Y126.164 E3.30764
G1 X145.52 Y126.356 E3.31703
G1 X145.318 Y126.505 E3.32538
G1 X145.089 Y126.637 E3.33417
G1 X144.843 Y126.746 E3.34312
G1 X144.583 Y126.828 E3.35218
G1 X144.332 Y126.877 E3.36069
G1 X144.071 Y126.898 E3.3694
G1 X143.803 Y126.891 E3.37832
G1 X143.544 Y126.855 E3.38701
G1 X143.165 Y126.76 E3.40001
G1 X142.802 Y126.578 E3.41351
G1 X142.581 Y126.434 E3.42229
G1 X142.373 Y126.263 E3.43124
G1 X142.194 Y126.079 E3.43978
G1 X142.032 Y125.872 E3.44852
G1 X141.893 Y125.644 E3.45741
G1 X141.776 Y125.399 E3.46644
G1 X141.648 Y125.03 E3.47943
G1 X141.605 Y124.63 E3.49281
G1 X141.605 Y124.377 E3.50122
G1 F1500 E-2.99878
G0 F6000 X77.89 Y123.85
G1 F1500 E3.50122
G1 F1200 X77.987 Y124.278 E3.51582
G1 X77.987 Y124.713 E3.53029
G1 X77.891 Y125.145 E3.545
G1 X77.698 Y125.555 E3.56008
G1 X77.363 Y125.982 E3.57813
G1 X76.912 Y126.278 E3.59607
G1 X76.695 Y126.374 E3.60396
G1 X76.277 Y126.48 E3.61831
G1 X75.834 Y126.492 E3.63305
G1 X75.405 Y126.408 E3.64758
G1 X75.005 Y126.232 E3.66212
G1 X74.553 Y125.901 E3.68075
G1 X74.178 Y125.356 E3.70276
G1 X74.03 Y124.841 E3.72058
G1 X74.005 Y124.606 E3.72844
G1 X74.035 Y124.057 E3.74673
G1 X74.244 Y123.546 E3.76509
G1 X74.496 Y123.185 E3.77973
G1 X74.898 Y122.813 E3.79795
G1 X75.401 Y122.592 E3.81622
G1 X75.834 Y122.508 E3.83089
G1 X76.269 Y122.52 E3.84537
G1 X76.706 Y122.63 E3.86035
G1 X77.198 Y122.88 E3.87871
G1 X77.656 Y123.354 E3.90063
G1 X77.89 Y123.85 E3.91887
G1 F1500 E-2.58113
G0 F6000 X75.605 Y124.486
G1 F1500 E3.91887
G1 F1200 X75.658 Y124.301 E3.92527
G1 X75.839 Y124.137 E3.9334
G1 X76.003 Y124.104 E3.93896
G1 X76.208 Y124.163 E3.94606
G1 X76.359 Y124.332 E3.95359
G1 X76.397 Y124.489 E3.95897
G1 X76.373 Y124.632 E3.96379
G1 X76.291 Y124.769 E3.9691
G1 X76.135 Y124.873 E3.97534
G1 X75.969 Y124.895 E3.9809
G1 X75.798 Y124.84 E3.98688
G1 X75.63 Y124.642 E3.99552
G1 X75.605 Y124.486 E4.00077
G0 F6000 X75.216 Y124.647
G1 F1200 X75.234 Y124.282 E4.01293
G1 X75.302 Y124.117 E4.01886
G1 X75.464 Y123.911 E4.02758
G1 X75.759 Y123.74 E4.03892
G1 X75.939 Y123.705 E4.04502
G1 X76.194 Y123.728 E4.05353
G1 X76.434 Y123.832 E4.06223
G1 X76.676 Y124.077 E4.07369
G1 X76.779 Y124.333 E4.08286
G1 X76.793 Y124.577 E4.09099
G1 X76.674 Y124.925 E4.10323
G1 X76.506 Y125.115 E4.11166
G1 X76.191 Y125.274 E4.1234
G1 X75.937 Y125.295 E4.13187
G1 X75.761 Y125.26 E4.13784
G1 X75.463 Y125.088 E4.14929
G1 X75.351 Y124.961 E4.15492
G1 X75.216 Y124.647 E4.16629
G0 F6000 X74.805 Y124.444
G1 F1200 X74.889 Y124.056 E4.17949
G1 X75.048 Y123.759 E4.1907
G1 X75.342 Y123.487 E4.20402
G1 X75.646 Y123.355 E4.21504
G1 X75.896 Y123.307 E4.22351
G1 X76.163 Y123.314 E4.23239
G1 X76.416 Y123.377 E4.24106
G1 X76.717 Y123.528 E4.25226
G1 X76.992 Y123.814 E4.26546
G1 X77.132 Y124.11 E4.27635
G1 X77.205 Y124.432 E4.28733
G1 X77.168 Y124.762 E4.29838
G1 X77.086 Y125.002 E4.30681
G1 X76.947 Y125.233 E4.31578
G1 X76.719 Y125.468 E4.32667
G1 X76.416 Y125.623 E4.33799
G1 X76.167 Y125.686 E4.34653
G1 X75.897 Y125.693 E4.35551
G1 X75.644 Y125.643 E4.36409
G1 X75.403 Y125.537 E4.37285
G1 X75.185 Y125.378 E4.38182
G1 X75.022 Y125.19 E4.3901
G1 X74.889 Y124.947 E4.39931
G1 X74.821 Y124.715 E4.40735
G1 X74.805 Y124.444 E4.41638
G0 F6000 X74.391 Y124.503
G1 F1200 X74.465 Y124.056 E4.43145
G1 X74.596 Y123.737 E4.44292
G1 X74.796 Y123.451 E4.45453
G1 X75.118 Y123.15 E4.46919
G1 X75.527 Y122.973 E4.48401
G1 X75.861 Y122.908 E4.49533
G1 X76.221 Y122.918 E4.50731
G1 X76.65 Y123.026 E4.52202
G1 X77.011 Y123.262 E4.53637
G1 X77.265 Y123.523 E4.54848
G1 X77.491 Y123.891 E4.56284
G1 X77.608 Y124.413 E4.58064
G1 X77.551 Y124.932 E4.598
G1 X77.36 Y125.339 E4.61296
G1 X77.091 Y125.684 E4.62751
G1 X76.716 Y125.928 E4.64239
G1 X76.309 Y126.081 E4.65685
G1 X75.866 Y126.092 E4.67159
G1 X75.522 Y126.025 E4.68324
G1 X75.119 Y125.848 E4.69788
G1 X74.796 Y125.551 E4.71248
G1 X74.596 Y125.261 E4.72419
G1 X74.459 Y124.926 E4.73623
G1 X74.391 Y124.503 E4.75048
G0 F6000 X73.605 Y124.377
G1 F1200 X73.635 Y124.101 E4.75972
G1 X73.691 Y123.847 E4.76837
G1 X73.774 Y123.606 E4.77684
G1 X73.892 Y123.356 E4.78604
G1 X74.023 Y123.143 E4.79436
G1 X74.273 Y122.821 E4.80791
G1 X74.576 Y122.569 E4.82102
G1 X74.804 Y122.419 E4.8301
G1 X75.037 Y122.302 E4.83877
G1 X75.288 Y122.208 E4.84769
G1 X75.531 Y122.148 E4.85601
G1 X75.799 Y122.109 E4.86502
G1 X76.066 Y122.102 E4.8739
G1 X76.326 Y122.123 E4.88258
G1 X76.59 Y122.175 E4.89153
G1 X76.841 Y122.252 E4.90026
G1 X77.082 Y122.358 E4.90902
G1 X77.308 Y122.489 E4.9177
G1 X77.526 Y122.648 E4.92668
G1 X77.716 Y122.824 E4.93529
G1 X77.9 Y123.034 E4.94458
G1 X78.043 Y123.241 E4.95295
G1 X78.169 Y123.474 E4.96176
G1 X78.268 Y123.719 E4.97055
G1 X78.34 Y123.972 E4.9793
G1 X78.384 Y124.233 E4.9881
G1 X78.399 Y124.497 E4.99689
G1 X78.377 Y124.893 E5.01008
G1 X78.268 Y125.281 E5.02349
G1 X78.172 Y125.517 E5.03196
G1 X77.981 Y125.873 E5.0454
G1 X77.727 Y126.164 E5.05825
G1 X77.52 Y126.356 E5.06764
G1 X77.318 Y126.505 E5.07599
G1 X77.089 Y126.637 E5.08478
G1 X76.843 Y126.746 E5.09373
G1 X76.583 Y126.828 E5.10279
G1 X76.332 Y126.877 E5.1113
G1 X76.071 Y126.898 E5.12001
G1 X75.803 Y126.891 E5.12893
G1 X75.544 Y126.855 E5.13762
G1 X75.165 Y126.76 E5.15062
G1 X74.802 Y126.578 E5.16412
G1 X74.581 Y126.434 E5.1729
G1 X74.373 Y126.263 E5.18185
G1 X74.194 Y126.079 E5.19039
G1 X74.032 Y125.872 E5.19913
G1 X73.893 Y125.644 E5.20802
G1 X73.776 Y125.399 E5.21705
G1 X73.648 Y125.03 E5.23004
G1 X73.605 Y124.63 E5.24342
G1 X73.605 Y124.377 E5.25183
G1 F1500 E-1.24817
G0 F6000 X74.581 Y97.434
G1 F1500 E5.25183
G1 F1200 X74.373 Y97.263 E5.26079
G1 X74.194 Y97.079 E5.26933
G1 X74.032 Y96.872 E5.27807
G1 X73.893 Y96.644 E5.28695
G1 X73.776 Y96.399 E5.29598
G1 X73.648 Y96.03 E5.30897
G1 X73.605 Y95.63 E5.32235
G1 X73.605 Y95.377 E5.33077
G1 X73.635 Y95.101 E5.34
G1 X73.691 Y94.847 E5.34865
G1 X73.774 Y94.606 E5.35713
G1 X73.892 Y94.356 E5.36632
G1 X74.023 Y94.143 E5.37464
G1 X74.273 Y93.821 E5.3882
G1 X74.576 Y93.569 E5.40131
G1 X74.804 Y93.419 E5.41038
G1 X75.037 Y93.302 E5.41906
G1 X75.288 Y93.208 E5.42797
G1 X75.531 Y93.148 E5.4363
