;FLAVOR:Marlin
;TIME:1611
;Filament used: 1.07006m
;Layer height: 0.2
;MINX:55.196
;MINY:98.2
;MINZ:0.2
;MAXX:164.804
;MAXY:121.8
;MAXZ:2.6
;Generated with Cura_SteamEngine main
M140 S65
M105
M190 S65
M104 S200
M105
M109 S200
M82 ;absolute extrusion mode
; Ender 3 Custom Start G-code
G92 E0 ; Reset Extruder
G28 ; Home all axes
G29 ; BLTouch 
G1 Z2.0 F3000 ; Move Z Axis up little to prevent scratching of Heat Bed
G1 X0.1 Y20 Z0.3 F5000.0 ; Move to start position
G1 X0.1 Y200.0 Z0.3 F1500.0 E15 ; Draw the first line
G1 X0.4 Y200.0 Z0.3 F5000.0 ; Move to side a little
G1 X0.4 Y20 Z0.3 F1500.0 E30 ; Draw the second line
G92 E0 ; Reset Extruder
G1 Z2.0 F3000 ; Move Z Axis up little to prevent scratching of Heat Bed
G1 X5 Y20 Z0.3 F5000.0 ; Move over to prevent blob squish
G92 E0
G92 E0
G1 F1500 E-6.5
;LAYER_COUNT:13
;LAYER:0
M107
;MESH:front_panel.stl
G0 F6000 X70.364 Y118.092 Z0.2
;TYPE:WALL-INNER
G1 F1500 E0
G1 F1200 X70.26 Y118.1 E0.00347
G1 X60.26 Y118.1 E0.33607
G1 X60.054 Y118.064 E0.34303
G1 X59.883 Y117.968 E0.34955
G1 X59.763 Y117.838 E0.35543
G1 X59.687 Y117.681 E0.36123
G1 X59.66 Y117.5 E0.36732
G1 X59.66 Y102.5 E0.86622
G1 X59.687 Y102.319 E0.87231
G1 X59.763 Y102.162 E0.87811
G1 X59.883 Y102.032 E0.884
G1 X60.185 Y101.9 E0.89496
G1 X70.26 Y101.9 E1.23005
G1 X70.467 Y101.936 E1.23704
G1 X70.638 Y102.033 E1.24358
G1 X70.758 Y102.164 E1.24949
G1 X70.856 Y102.427 E1.25882
G1 X70.86 Y117.579 E1.76278
G1 X70.741 Y117.861 E1.77296
G1 X70.62 Y117.98 E1.77861
G1 X70.364 Y118.092 E1.7879
G0 F6000 X70.421 Y117.621
;TYPE:WALL-OUTER
G1 F1200 X70.295 Y117.698 E1.79281
G1 X60.207 Y117.7 E2.12834
G1 X60.094 Y117.613 E2.13308
G1 X60.062 Y117.535 E2.13589
G1 X60.06 Y102.452 E2.63755
G1 X60.134 Y102.344 E2.6419
G1 X60.225 Y102.302 E2.64524
G1 X70.314 Y102.3 E2.9808
G1 X70.426 Y102.388 E2.98554
G1 X70.459 Y102.475 E2.98863
G1 X70.457 Y117.537 E3.4896
G1 X70.421 Y117.621 E3.49264
G1 F1500 E-3.00736
G0 F6000 X70.76 Y117.621
G0 X71.028 Y117.642
G0 X81.05 Y118.386
G0 X83.322 Y119.071
;TYPE:WALL-INNER
G1 F1500 E3.49264
G1 F1200 X82.806 Y119.099 E3.50982
G1 X82.432 Y119.058 E3.52234
G1 X82.088 Y118.955 E3.53428
G1 X81.597 Y118.71 E3.55253
G1 X81.228 Y118.328 E3.5702
G1 X81.014 Y118.013 E3.58286
G1 X80.862 Y117.643 E3.59617
G1 X80.743 Y117.189 E3.61178
G1 X80.787 Y116.656 E3.62956
G1 X80.878 Y116.308 E3.64153
G1 X81.018 Y115.982 E3.65333
G1 X81.2 Y115.714 E3.6641
G1 X81.265 Y115.634 E3.66753
G1 X81.598 Y115.29 E3.68346
G1 X82.091 Y115.042 E3.70181
G1 X82.61 Y114.893 E3.71977
G1 X83.307 Y114.924 E3.74298
G1 X83.801 Y115.12 E3.76065
G1 X84.26 Y115.404 E3.7786
G1 X84.593 Y115.808 E3.79602
G1 X84.78 Y116.141 E3.80872
G1 X84.9 Y116.485 E3.82084
G1 X84.979 Y117.011 E3.83853
G1 X84.897 Y117.522 E3.85574
G1 X84.779 Y117.86 E3.86765
G1 X84.597 Y118.184 E3.88001
G1 X84.258 Y118.597 E3.89778
G1 X83.797 Y118.883 E3.91582
G1 X83.322 Y119.071 E3.93282
G0 F6000 X83.214 Y118.679
;TYPE:WALL-OUTER
G1 F1200 X82.806 Y118.699 E3.9464
G1 X82.526 Y118.666 E3.95578
G1 X82.253 Y118.587 E3.96523
G1 X81.836 Y118.381 E3.9807
G1 X81.53 Y118.06 E3.99545
G1 X81.361 Y117.805 E4.00563
G1 X81.249 Y117.541 E4.01517
G1 X81.15 Y117.152 E4.02852
G1 X81.182 Y116.72 E4.04292
G1 X81.255 Y116.442 E4.05248
G1 X81.38 Y116.161 E4.06271
G1 X81.553 Y115.912 E4.0728
G1 X81.838 Y115.617 E4.08644
G1 X82.255 Y115.412 E4.10189
G1 X82.641 Y115.298 E4.11528
G1 X83.222 Y115.321 E4.13462
G1 X83.632 Y115.486 E4.14932
G1 X83.994 Y115.711 E4.1635
G1 X84.272 Y116.053 E4.17816
G1 X84.405 Y116.289 E4.18717
G1 X84.509 Y116.581 E4.19747
G1 X84.576 Y116.997 E4.21149
G1 X84.502 Y117.439 E4.22639
G1 X84.404 Y117.71 E4.23598
G1 X84.273 Y117.944 E4.2449
G1 X83.992 Y118.291 E4.25975
G1 X83.631 Y118.515 E4.27388
G1 X83.214 Y118.679 E4.28878
G1 F1500 E-2.21122
G0 F6000 X83.227 Y118.979
G0 X84.152 Y118.474
G0 X84.632 Y117.79
G0 X84.783 Y117.149
G0 X84.779 Y115.769
G0 X84.779 Y112.781
G0 X87.485 Y112.6
;TYPE:WALL-INNER
G1 F1500 E4.28878
G1 F1200 X78.209 Y112.599 E4.59731
G1 X77.962 Y112.522 E4.60591
G1 X77.816 Y112.405 E4.61213
G1 X77.66 Y112.083 E4.62403
G1 X77.66 Y100.6 E5.00596
G1 X77.706 Y100.368 E5.01383
G1 X77.9 Y100.119 E5.02432
G1 X78.174 Y100 E5.03426
G1 X87.46 Y100 E5.34311
G1 X87.82 Y100.12 E5.35574
G1 X88.014 Y100.369 E5.36623
G1 X88.06 Y100.6 E5.37407
G1 X88.06 Y112.083 E5.75599
G1 X87.904 Y112.405 E5.76789
G1 X87.758 Y112.522 E5.77412
G1 X87.485 Y112.6 E5.78356
G0 F6000 X87.585 Y112.157
;TYPE:WALL-OUTER
G1 F1200 X87.469 Y112.2 E5.78768
G1 X78.243 Y112.2 E6.09453
G1 X78.135 Y112.157 E6.0984
G1 X78.062 Y112.035 E6.10313
G1 X78.06 Y100.541 E6.48542
G1 X78.14 Y100.439 E6.48973
G1 X78.225 Y100.402 E6.49282
G1 X87.46 Y100.4 E6.79997
G1 X87.58 Y100.44 E6.80418
G1 X87.66 Y100.542 E6.80849
G1 X87.657 Y112.039 E7.19088
G1 X87.585 Y112.157 E7.19548
G1 F1500 E0.69548
G0 F6000 X87.585 Y112.5
G0 X87.945 Y112.613
G0 X94.66 Y112.613
G0 X95.46 Y121.3
;TYPE:WALL-INNER
G1 F1500 E7.19548
G1 F872.7 X95.22 Y121.13 E7.20893
G1 F1066.7 X94.98 Y120.96 E7.21994
G1 F1200 X94.86 Y120.6 E7.23256
G1 X94.86 Y105.522 E7.73405
G1 X95.01 Y105.202 E7.74581
G1 X95.202 Y105.058 E7.75379
G1 X95.365 Y105 E7.75955
G1 X157.544 Y105 E9.82763
G1 X157.797 Y105.103 E9.83671
G1 X157.953 Y105.256 E9.84398
G1 X158.06 Y105.503 E9.85293
G1 X158.06 Y120.6 E10.35506
G1 X157.94 Y120.96 E10.36768
G1 F950.5 X157.581 Y121.295 E10.3883
G1 F861.8 X157.87 Y121.347 E10.4019
G1 F1061.9 X158.16 Y121.4 E10.41298
G1 F1200 X164.404 Y121.4 E10.62066
G1 X164.404 Y102.436 E11.2514
G1 X164.404 Y98.6 E11.37899
G1 X55.597 Y98.601 E14.99792
G1 X55.597 Y121.399 E15.75619
G1 X94.76 Y121.4 E17.05876
G1 F1066.7 X95.11 Y121.35 E17.07198
G1 F872.7 X95.46 Y121.3 E17.08815
G0 F6000 X95.3 Y120.72
;TYPE:WALL-OUTER
G1 F1200 X95.26 Y120.6 E17.09236
G1 X95.263 Y105.562 E17.59253
G1 X95.338 Y105.441 E17.59726
G1 X95.425 Y105.402 E17.60043
G1 X157.501 Y105.404 E19.66509
G1 X157.625 Y105.485 E19.67001
G1 X157.656 Y105.558 E19.67265
G1 X157.66 Y120.6 E20.17295
G1 X157.62 Y120.72 E20.17716
G1 X157.495 Y120.798 E20.18206
G1 X95.46 Y120.8 E22.24535
G1 X95.3 Y120.72 E22.2513
G0 F6000 X95.46 Y121.3
;TYPE:WALL-INNER
G1 F800 X96.256 Y121.3 E22.29101
G1 X97.052 Y121.3 E22.33073
G1 X97.848 Y121.3 E22.37044
G1 X98.644 Y121.3 E22.41015
G1 X99.44 Y121.3 E22.44986
G1 X100.236 Y121.3 E22.48958
G1 X101.032 Y121.3 E22.52929
G1 X101.828 Y121.3 E22.569
G1 F798.7 X102.624 Y121.3 E22.60878
G1 X103.42 Y121.3 E22.64856
G1 X104.216 Y121.3 E22.68834
G1 X105.012 Y121.3 E22.72812
G1 X105.808 Y121.3 E22.7679
G1 X106.604 Y121.3 E22.80767
G1 X107.4 Y121.3 E22.84745
G1 X108.196 Y121.299 E22.88723
G1 F797.3 X108.992 Y121.299 E22.92708
G1 X109.788 Y121.299 E22.96692
G1 X110.584 Y121.299 E23.00677
G1 X111.38 Y121.299 E23.04661
G1 X112.176 Y121.299 E23.08646
G1 X112.972 Y121.299 E23.1263
G1 X113.768 Y121.299 E23.16615
G1 F796 X114.564 Y121.299 E23.20606
G1 X115.36 Y121.299 E23.24597
G1 X116.156 Y121.299 E23.28588
G1 X116.952 Y121.299 E23.32579
G1 X117.748 Y121.299 E23.3657
G1 X118.544 Y121.299 E23.40561
G1 X119.34 Y121.299 E23.44553
G1 X120.136 Y121.299 E23.48544
G1 F794.7 X120.932 Y121.298 E23.52541
G1 X121.728 Y121.298 E23.56539
G1 X122.524 Y121.298 E23.60537
G1 X123.32 Y121.298 E23.64535
G1 X124.116 Y121.298 E23.68532
G1 X124.912 Y121.298 E23.7253
G1 X125.708 Y121.298 E23.76528
G1 X126.504 Y121.298 E23.80526
G1 F793.4 X127.3 Y121.298 E23.8453
G1 X128.096 Y121.298 E23.88534
G1 X128.892 Y121.298 E23.92539
G1 X129.688 Y121.298 E23.96543
G1 X130.484 Y121.298 E24.00547
G1 X131.28 Y121.298 E24.04552
G1 X132.076 Y121.298 E24.08556
G1 X132.872 Y121.297 E24.1256
G1 F792.1 X133.668 Y121.297 E24.16571
G1 X134.464 Y121.297 E24.20582
G1 X135.26 Y121.297 E24.24593
G1 X136.056 Y121.297 E24.28604
G1 X136.852 Y121.297 E24.32615
G1 X137.648 Y121.297 E24.36626
G1 X138.444 Y121.297 E24.40637
G1 X139.24 Y121.297 E24.44648
G1 F790.8 X140.036 Y121.297 E24.48666
G1 X140.832 Y121.297 E24.52683
G1 X141.628 Y121.297 E24.56701
G1 X142.424 Y121.297 E24.60719
G1 X143.22 Y121.297 E24.64736
G1 X144.016 Y121.297 E24.68754
G1 X144.812 Y121.297 E24.72771
G1 F789.5 X145.608 Y121.296 E24.76796
G1 X146.404 Y121.296 E24.8082
G1 X147.2 Y121.296 E24.84844
G1 X147.996 Y121.296 E24.88868
G1 X148.792 Y121.296 E24.92892
G1 X149.588 Y121.296 E24.96917
G1 X150.384 Y121.296 E25.00941
G1 X151.18 Y121.296 E25.04965
G1 F788.2 X151.976 Y121.296 E25.08996
G1 X152.772 Y121.296 E25.13027
G1 X153.568 Y121.296 E25.17057
G1 X154.364 Y121.296 E25.21088
G1 X155.16 Y121.296 E25.25119
G1 X155.956 Y121.296 E25.2915
G1 X156.752 Y121.296 E25.33181
G1 X157.548 Y121.296 E25.37212
G1 F1500 E18.87212
G0 F6000 X55.466 Y121.53
G1 F1500 E25.37212
G0 F6000 X55.197 Y121.799
;TYPE:WALL-OUTER
G1 F1200 X164.804 Y121.8 E29.01766
G1 X164.804 Y102.436 E29.66171
G1 X164.804 Y98.2 E29.8026
G1 X55.197 Y98.201 E33.44814
G1 X55.197 Y121.799 E34.23302
G1 F1500 E27.73302
G0 F6000 X55.466 Y121.53
G0 X70.484 Y121.2
G0 X70.395 Y118.27
G0 X70.574 Y118.413
;TYPE:SKIN
G1 F1500 E34.23302
G1 F1200 X70.287 Y118.458 E34.24268
G1 X60.228 Y118.458 E34.57724
G1 X59.932 Y118.406 E34.58724
G1 X59.652 Y118.25 E34.5979
G1 X59.468 Y118.043 E34.60711
G1 X59.34 Y117.784 E34.61672
G1 X59.302 Y117.53 E34.62526
G1 X59.302 Y102.478 E35.12589
G1 X59.354 Y102.182 E35.13589
G1 X59.468 Y101.956 E35.14431
G1 X59.683 Y101.734 E35.15459
G1 X59.949 Y101.592 E35.16461
G1 X60.137 Y101.542 E35.17108
G1 X70.291 Y101.542 E35.50881
G1 X70.588 Y101.593 E35.51883
G1 X70.84 Y101.736 E35.52847
G1 X71.063 Y101.963 E35.53905
G1 X71.203 Y102.335 E35.55227
G1 X71.214 Y102.381 E35.55384
G1 X71.217 Y117.635 E36.06119
G1 X71.036 Y118.077 E36.07708
G1 X70.812 Y118.285 E36.08725
G1 X70.574 Y118.413 E36.09624
G1 F1500 E29.59624
G0 F6000 X70.484 Y118.165
G0 X71.028 Y117.642
G0 X81.05 Y118.386
G0 X83.397 Y119.425
G1 F1500 E36.09624
G1 F1200 X82.782 Y119.463 E36.11673
G1 X82.351 Y119.411 E36.13117
G1 X81.873 Y119.253 E36.14791
G1 X81.498 Y119.059 E36.16196
G1 X81.265 Y118.884 E36.17165
G1 X80.946 Y118.553 E36.18694
G1 X80.711 Y118.21 E36.20077
G1 X80.527 Y117.788 E36.21608
G1 X80.381 Y117.22 E36.23558
G1 X80.43 Y116.586 E36.25673
G1 X80.535 Y116.196 E36.27017
G1 X80.705 Y115.801 E36.28447
G1 X80.934 Y115.46 E36.29813
G1 X81.292 Y115.092 E36.31521
G1 X81.5 Y114.939 E36.3238
G1 X81.991 Y114.694 E36.34205
G1 X82.561 Y114.534 E36.36174
G1 X83.258 Y114.564 E36.38494
G1 X83.54 Y114.628 E36.39456
G1 X83.976 Y114.804 E36.4102
G1 X84.499 Y115.127 E36.43064
G1 X84.887 Y115.599 E36.45097
G1 X85.116 Y116.01 E36.46661
G1 X85.244 Y116.384 E36.47976
G1 X85.341 Y116.998 E36.50044
G1 X85.242 Y117.633 E36.52181
G1 X85.112 Y117.998 E36.5347
G1 X84.902 Y118.377 E36.54911
G1 X84.583 Y118.768 E36.56589
G1 X84.365 Y118.956 E36.57547
G1 X83.978 Y119.195 E36.5906
G1 X83.397 Y119.425 E36.61138
G1 F1500 E30.11138
G0 F6000 X83.513 Y119.103
G0 X84.462 Y118.096
G0 X84.74 Y117.477
G0 X84.784 Y117.206
G0 X84.779 Y115.769
G0 X84.779 Y112.781
G0 X87.524 Y112.958
G1 F1500 E36.61138
G1 F1200 X78.175 Y112.962 E36.92233
G1 X77.898 Y112.891 E36.93184
G1 X77.662 Y112.755 E36.9409
G1 X77.445 Y112.512 E36.95174
G1 X77.303 Y112.14 E36.96498
G1 X77.303 Y100.565 E37.34996
G1 F1173.6 X77.371 Y100.225 E37.36176
G1 F1124.1 X77.668 Y99.843 E37.37894
G1 F1078.7 X77.895 Y99.708 E37.38871
G1 F1036.7 X78.122 Y99.572 E37.3989
G1 F1016.9 X78.376 Y99.572 E37.40887
G1 F1014.8 X78.63 Y99.572 E37.41886
G1 F1012.7 X78.884 Y99.572 E37.42887
G1 F1010.5 X79.138 Y99.572 E37.4389
G1 F1008.4 X79.392 Y99.572 E37.44895
G1 F1006.3 X79.646 Y99.572 E37.45903
G1 F1002.1 X79.9 Y99.572 E37.46914
G1 F1000 X80.154 Y99.572 E37.47928
G1 F997.9 X80.408 Y99.572 E37.48944
G1 F995.9 X80.662 Y99.572 E37.49962
G1 F993.8 X80.916 Y99.572 E37.50982
G1 F991.7 X81.17 Y99.572 E37.52004
G1 F989.7 X81.424 Y99.572 E37.53029
G1 F987.7 X81.678 Y99.572 E37.54055
G1 F985.6 X81.932 Y99.572 E37.55084
G1 F983.6 X82.186 Y99.572 E37.56114
G1 F981.6 X82.44 Y99.572 E37.57147
G1 F979.6 X82.694 Y99.572 E37.58182
G1 F975.6 X82.948 Y99.571 E37.59221
G1 F973.6 X83.202 Y99.571 E37.60262
G1 F971.7 X83.456 Y99.571 E37.61306
G1 F969.7 X83.71 Y99.571 E37.62351
G1 F967.7 X83.964 Y99.571 E37.63399
G1 F965.8 X84.218 Y99.571 E37.64448
G1 F963.9 X84.472 Y99.571 E37.655
G1 F961.9 X84.726 Y99.571 E37.66554
G1 F960 X84.98 Y99.571 E37.6761
G1 F958.1 X85.234 Y99.571 E37.68668
G1 F956.2 X85.488 Y99.571 E37.69728
G1 F954.3 X85.742 Y99.571 E37.70791
G1 F952.4 X85.996 Y99.571 E37.71855
G1 F948.6 X86.25 Y99.571 E37.72924
G1 F946.7 X86.504 Y99.571 E37.73995
G1 F944.9 X86.758 Y99.571 E37.75067
G1 F943 X87.012 Y99.571 E37.76143
G1 F941.2 X87.266 Y99.571 E37.7722
G1 F939.3 X87.52 Y99.571 E37.78299
G1 F963.9 X87.788 Y99.705 E37.7954
G1 F1021.3 X88.05 Y99.841 E37.80693
G1 F1121.5 X88.349 Y100.224 E37.82422
G1 F1200 X88.417 Y100.565 E37.83579
G1 X88.418 Y112.139 E38.22074
G1 X88.337 Y112.385 E38.22936
G1 X88.172 Y112.646 E38.23963
G1 X87.937 Y112.84 E38.24976
G1 X87.524 Y112.958 E38.26405
G1 F1500 E31.76405
G0 F6000 X86.694 Y112.7
G0 X87.567 Y112.774
G0 X94.66 Y112.774
G0 X94.637 Y121.039
G1 F1500 E38.26405
G1 F1200 X94.5 Y120.627 E38.27849
G1 X94.503 Y105.447 E38.78338
G1 X94.647 Y105.088 E38.79624
G1 X94.876 Y104.836 E38.80757
G1 X95.298 Y104.644 E38.82299
G1 X157.6 Y104.64 E40.89516
G1 X157.871 Y104.735 E40.90471
G1 X158.137 Y104.916 E40.91541
G1 X158.323 Y105.184 E40.92626
G1 X158.42 Y105.458 E40.93593
G1 X158.42 Y120.627 E41.44045
G1 X158.282 Y121.04 E41.45494
G1 X164.044 Y121.04 E41.64658
G1 X164.044 Y102.435 E42.26539
G1 X164.044 Y98.96 E42.38097
G1 X88.117 Y98.961 E44.90631
G1 F1008.4 X87.629 Y99.037 E44.92586
G1 F879.1 X87.453 Y99.03 E44.93385
G1 F888.9 X85.575 Y99.03 E45.01818
G1 F887.2 X83.697 Y99.03 E45.10266
G1 F885.6 X81.819 Y99.031 E45.18729
G1 X79.941 Y99.031 E45.27193
G1 F884 X78.063 Y99.031 E45.35672
G1 F944.9 X77.806 Y98.997 E45.36767
G1 F1100.9 X77.55 Y98.961 E45.37705
G1 F1200 X55.957 Y98.961 E46.09523
G1 X55.958 Y121.038 E46.82952
G1 X94.637 Y121.039 E48.11599
G1 F1500 E41.61599
G0 F6000 X94.885 Y120.958
G0 X95.098 Y121.209
G0 X56.349 Y121.299
G1 F1500 E48.11599
G0 F6000 X56.349 Y120.837
G1 F1200 X56.157 Y120.645 E48.12502
G0 F6000 X56.157 Y120.08
G1 F1200 X56.915 Y120.837 E48.16065
G0 F6000 X57.48 Y120.837
G1 F1200 X56.157 Y119.514 E48.22288
G0 F6000 X56.157 Y118.948
G1 F1200 X58.046 Y120.837 E48.31173
G0 F6000 X58.612 Y120.837
G1 F1200 X56.157 Y118.383 E48.42718
G0 F6000 X56.157 Y117.817
G1 F1200 X59.177 Y120.837 E48.56923
G0 F6000 X59.743 Y120.837
G1 F1200 X56.157 Y117.251 E48.73791
G0 F6000 X56.157 Y116.686
G1 F1200 X60.309 Y120.837 E48.93318
G0 F6000 X60.874 Y120.837
G1 F1200 X56.157 Y116.12 E49.15506
G0 F6000 X56.157 Y115.554
G1 F1200 X61.44 Y120.837 E49.40355
G0 F6000 X62.006 Y120.837
G1 F1200 X59.64 Y118.472 E49.51482
G0 F6000 X59.281 Y118.112
G1 F1200 X56.157 Y114.988 E49.66176
G0 F6000 X56.157 Y114.423
G1 F1200 X59.104 Y117.369 E49.80035
G0 F6000 X59.104 Y116.804
G1 F1200 X56.157 Y113.857 E49.93897
G0 F6000 X56.157 Y113.291
G1 F1200 X59.104 Y116.238 E50.07759
G0 F6000 X59.104 Y115.672
G1 F1200 X56.157 Y112.726 E50.21618
G0 F6000 X56.157 Y112.16
G1 F1200 X59.104 Y115.107 E50.3548
G0 F6000 X59.103 Y114.54
G1 F1200 X56.157 Y111.594 E50.49337
G0 F6000 X56.157 Y111.029
G1 F1200 X59.103 Y113.975 E50.63194
G0 F6000 X59.103 Y113.409
G1 F1200 X56.157 Y110.463 E50.77052
G0 F6000 X56.157 Y109.897
G1 F1200 X59.103 Y112.843 E50.90909
G0 F6000 X59.102 Y112.277
G1 F1200 X56.157 Y109.331 E51.04763
G0 F6000 X56.157 Y108.765
G1 F1200 X59.102 Y111.711 E51.18618
G0 F6000 X59.102 Y111.145
G1 F1200 X56.157 Y108.2 E51.3247
G0 F6000 X56.157 Y107.634
G1 F1200 X59.102 Y110.58 E51.46325
G0 F6000 X59.102 Y110.013
G1 F1200 X56.157 Y107.068 E51.60178
G0 F6000 X56.157 Y106.503
G1 F1200 X59.102 Y109.448 E51.7403
G0 F6000 X59.102 Y108.882
G1 F1200 X56.157 Y105.937 E51.87882
G0 F6000 X56.157 Y105.371
G1 F1200 X59.102 Y108.316 E52.01735
G0 F6000 X59.102 Y107.751
G1 F1200 X56.157 Y104.805 E52.15589
G0 F6000 X56.157 Y104.24
G1 F1200 X59.101 Y107.184 E52.29437
G0 F6000 X59.101 Y106.618
G1 F1200 X56.157 Y103.674 E52.43285
G0 F6000 X56.157 Y103.108
G1 F1200 X59.101 Y106.053 E52.57135
G0 F6000 X59.101 Y105.487
G1 F1200 X56.157 Y102.543 E52.70982
