;FLAVOR:Marlin
;TIME:12953
;Filament used: 10.6744m
;Layer height: 0.2
;MINX:44.335
;MINY:66.2
;MINZ:0.2
;MAXX:175.665
;MAXY:146.665
;MAXZ:8
;Generated with Cura_SteamEngine main
M140 S65
M105
M190 S65
M104 S200
M105
M109 S200
M82 ;absolute extrusion mode
; Ender 3 Custom Start G-code
G92 E0 ; Reset Extruder
G28 ; Home all axes
G29 ; BLTouch 
G1 Z2.0 F3000 ; Move Z Axis up little to prevent scratching of Heat Bed
G1 X0.1 Y20 Z0.3 F5000.0 ; Move to start position
G1 X0.1 Y200.0 Z0.3 F1500.0 E15 ; Draw the first line
G1 X0.4 Y200.0 Z0.3 F5000.0 ; Move to side a little
G1 X0.4 Y20 Z0.3 F1500.0 E30 ; Draw the second line
G92 E0 ; Reset Extruder
G1 Z2.0 F3000 ; Move Z Axis up little to prevent scratching of Heat Bed
G1 X5 Y20 Z0.3 F5000.0 ; Move over to prevent blob squish
G92 E0
G92 E0
G1 F1500 E-6.5
;LAYER_COUNT:40
;LAYER:0
M107
G0 F6000 X169.653 Y70.813 Z0.2
G0 X169.607 Y71.03
;TYPE:SKIRT
G1 F1500 E0
G1 F1200 X169.653 Y70.813 E0.00738
G1 X169.798 Y70.662 E0.01434
G1 X169.957 Y70.609 E0.01992
G1 X170.211 Y70.668 E0.02859
G1 X170.334 Y70.792 E0.0344
G1 X170.39 Y71.059 E0.04347
G1 X170.303 Y71.25 E0.05045
G1 X170.113 Y71.377 E0.05805
G1 X169.957 Y71.391 E0.06326
G1 X169.798 Y71.338 E0.06884
G1 X169.653 Y71.187 E0.0758
G1 X169.607 Y71.03 E0.08124
G0 F6000 X169.207 Y70.943
G1 F1200 X169.254 Y70.726 E0.08863
G1 X169.353 Y70.539 E0.09566
G1 X169.51 Y70.374 E0.10324
G1 X169.806 Y70.229 E0.1142
G1 X170.024 Y70.206 E0.12149
G1 X170.24 Y70.243 E0.12878
G1 X170.437 Y70.336 E0.13603
G1 X170.603 Y70.483 E0.1434
G1 X170.726 Y70.676 E0.15101
G1 X170.787 Y70.885 E0.15825
G1 X170.787 Y71.115 E0.1659
G1 X170.726 Y71.324 E0.17315
G1 X170.603 Y71.517 E0.18076
G1 X170.437 Y71.664 E0.18813
G1 X170.24 Y71.757 E0.19538
G1 X170.024 Y71.794 E0.20267
G1 X169.806 Y71.771 E0.20996
G1 X169.51 Y71.626 E0.22092
G1 X169.353 Y71.461 E0.2285
G1 X169.254 Y71.274 E0.23553
G1 X169.207 Y70.943 E0.24665
G0 F6000 X168.801 Y70.83
G1 F1200 X168.947 Y70.433 E0.26072
G1 X169.196 Y70.094 E0.27471
G1 X169.632 Y69.847 E0.29138
G1 X170.039 Y69.805 E0.30499
G1 X170.366 Y69.862 E0.31603
G1 X170.744 Y70.044 E0.32998
G1 X171.069 Y70.435 E0.34689
G1 X171.184 Y70.829 E0.36054
G1 X171.184 Y71.25 E0.37455
G1 X171.018 Y71.627 E0.38825
G1 X170.743 Y71.956 E0.40251
G1 X170.366 Y72.138 E0.41643
G1 X170.039 Y72.195 E0.42747
G1 X169.632 Y72.153 E0.44108
G1 X169.196 Y71.906 E0.45775
G1 X168.947 Y71.567 E0.47174
G1 X168.83 Y71.249 E0.48301
G1 X168.801 Y70.83 E0.49698
G0 F6000 X168.407 Y70.888
G1 F1200 X168.5 Y70.453 E0.51177
G1 X168.705 Y70.066 E0.52634
G1 X169.024 Y69.736 E0.5416
G1 X169.404 Y69.52 E0.55614
G1 X169.614 Y69.451 E0.56349
G1 X170.054 Y69.405 E0.57821
G1 X170.487 Y69.479 E0.59282
G1 X170.705 Y69.567 E0.60064
G1 X171.071 Y69.816 E0.61536
G1 X171.356 Y70.158 E0.63017
G1 X171.459 Y70.351 E0.63744
G1 X171.581 Y70.773 E0.65205
G1 X171.581 Y71.227 E0.66715
G1 X171.459 Y71.649 E0.68177
G1 X171.356 Y71.842 E0.68904
G1 X171.071 Y72.184 E0.70385
G1 X170.705 Y72.433 E0.71857
G1 X170.487 Y72.521 E0.72639
G1 X170.054 Y72.595 E0.741
G1 X169.614 Y72.549 E0.75572
G1 X169.404 Y72.48 E0.76307
G1 X169.024 Y72.264 E0.77761
G1 X168.851 Y72.108 E0.78535
G1 X168.59 Y71.75 E0.80009
G1 X168.5 Y71.547 E0.80747
G1 X168.407 Y71.112 E0.82227
G1 X168.407 Y70.888 E0.82972
G0 F6000 X168.007 Y70.862
G1 F1200 X168.046 Y70.582 E0.83912
G1 X168.121 Y70.32 E0.84819
G1 X168.236 Y70.062 E0.85758
G1 X168.383 Y69.827 E0.8668
G1 X168.561 Y69.615 E0.87601
G1 X168.777 Y69.42 E0.88569
G1 X168.992 Y69.276 E0.89429
G1 X169.259 Y69.146 E0.90417
G1 X169.513 Y69.063 E0.91306
G1 X169.79 Y69.014 E0.92241
G1 X170.069 Y69.004 E0.9317
G1 X170.354 Y69.035 E0.94124
G1 X170.614 Y69.099 E0.95014
G1 X170.879 Y69.206 E0.95965
G1 X171.114 Y69.341 E0.96866
G1 X171.336 Y69.515 E0.97804
G1 X171.524 Y69.71 E0.98705
G1 X171.696 Y69.945 E0.99674
G1 X171.825 Y70.188 E1.00589
G1 X171.921 Y70.453 E1.01526
G1 X171.978 Y70.718 E1.02428
G1 X171.997 Y71 E1.03368
G1 X171.978 Y71.282 E1.04308
G1 X171.921 Y71.547 E1.05209
G1 X171.825 Y71.812 E1.06147
G1 X171.696 Y72.055 E1.07062
G1 X171.527 Y72.286 E1.08014
G1 X171.336 Y72.485 E1.08931
G1 X171.114 Y72.659 E1.09869
G1 X170.879 Y72.794 E1.10771
G1 X170.614 Y72.901 E1.11721
G1 X170.354 Y72.965 E1.12612
G1 X170.069 Y72.996 E1.13565
G1 X169.79 Y72.986 E1.14494
G1 X169.513 Y72.937 E1.1543
G1 X169.259 Y72.854 E1.16318
G1 X168.992 Y72.724 E1.17306
G1 X168.777 Y72.58 E1.18167
G1 X168.561 Y72.385 E1.19135
G1 X168.383 Y72.173 E1.20055
G1 X168.236 Y71.938 E1.20977
G1 X168.121 Y71.68 E1.21917
G1 X168.046 Y71.418 E1.22823
G1 X168.007 Y71.138 E1.23763
G1 X168.007 Y70.862 E1.24681
G1 F1500 E-5.25319
G0 F6000 X168.777 Y139.42
G1 F1500 E1.24681
G1 F1200 X168.992 Y139.276 E1.25542
G1 X169.259 Y139.146 E1.2653
G1 X169.513 Y139.063 E1.27419
G1 X169.79 Y139.014 E1.28354
G1 X170.069 Y139.004 E1.29283
G1 X170.354 Y139.035 E1.30236
G1 X170.614 Y139.099 E1.31127
G1 X170.879 Y139.206 E1.32077
G1 X171.114 Y139.341 E1.32979
G1 X171.336 Y139.515 E1.33917
G1 X171.524 Y139.71 E1.34818
G1 X171.696 Y139.945 E1.35786
G1 X171.825 Y140.188 E1.36701
G1 X171.921 Y140.453 E1.37639
G1 X171.978 Y140.718 E1.3854
G1 X171.997 Y141 E1.39481
G1 X171.978 Y141.282 E1.40421
G1 X171.921 Y141.547 E1.41322
G1 X171.825 Y141.812 E1.4226
G1 X171.696 Y142.055 E1.43175
G1 X171.527 Y142.286 E1.44127
G1 X171.336 Y142.485 E1.45044
G1 X171.114 Y142.659 E1.45982
G1 X170.879 Y142.794 E1.46884
G1 X170.614 Y142.901 E1.47834
G1 X170.354 Y142.965 E1.48725
G1 X170.069 Y142.996 E1.49678
G1 X169.79 Y142.986 E1.50607
G1 X169.513 Y142.937 E1.51542
G1 X169.259 Y142.854 E1.52431
G1 X168.992 Y142.724 E1.53419
G1 X168.777 Y142.58 E1.54279
G1 X168.561 Y142.385 E1.55247
G1 X168.383 Y142.173 E1.56168
G1 X168.236 Y141.938 E1.5709
G1 X168.121 Y141.68 E1.58029
G1 X168.046 Y141.418 E1.58936
G1 X168.007 Y141.138 E1.59876
G1 X168.007 Y140.862 E1.60794
G1 X168.046 Y140.582 E1.61734
G1 X168.121 Y140.32 E1.62641
G1 X168.236 Y140.062 E1.6358
G1 X168.383 Y139.827 E1.64502
G1 X168.561 Y139.615 E1.65423
G1 X168.777 Y139.42 E1.66391
G0 F6000 X168.801 Y140.83
G1 F1200 X168.947 Y140.433 E1.67798
G1 X169.196 Y140.094 E1.69197
G1 X169.632 Y139.847 E1.70863
G1 X170.039 Y139.805 E1.72224
G1 X170.366 Y139.862 E1.73328
G1 X170.744 Y140.044 E1.74724
G1 X171.069 Y140.435 E1.76415
G1 X171.184 Y140.829 E1.7778
G1 X171.184 Y141.25 E1.7918
G1 X171.018 Y141.627 E1.8055
G1 X170.743 Y141.956 E1.81976
G1 X170.366 Y142.138 E1.83369
G1 X170.039 Y142.195 E1.84473
G1 X169.632 Y142.153 E1.85834
G1 X169.196 Y141.906 E1.875
G1 X168.947 Y141.567 E1.88899
G1 X168.83 Y141.249 E1.90026
G1 X168.801 Y140.83 E1.91423
G0 F6000 X168.407 Y140.888
G1 F1200 X168.5 Y140.453 E1.92903
G1 X168.705 Y140.066 E1.94359
G1 X169.024 Y139.736 E1.95886
G1 X169.404 Y139.52 E1.9734
G1 X169.614 Y139.451 E1.98075
G1 X170.054 Y139.405 E1.99546
G1 X170.487 Y139.479 E2.01007
G1 X170.705 Y139.567 E2.01789
G1 X171.071 Y139.816 E2.03262
G1 X171.356 Y140.158 E2.04742
G1 X171.459 Y140.351 E2.0547
G1 X171.581 Y140.773 E2.06931
G1 X171.581 Y141.227 E2.08441
G1 X171.459 Y141.649 E2.09902
G1 X171.356 Y141.842 E2.1063
G1 X171.071 Y142.184 E2.1211
G1 X170.705 Y142.433 E2.13583
G1 X170.487 Y142.521 E2.14365
G1 X170.054 Y142.595 E2.15826
G1 X169.614 Y142.549 E2.17297
G1 X169.404 Y142.48 E2.18032
G1 X169.024 Y142.264 E2.19486
G1 X168.851 Y142.108 E2.20261
G1 X168.59 Y141.75 E2.21734
G1 X168.5 Y141.547 E2.22473
G1 X168.407 Y141.112 E2.23952
G1 X168.407 Y140.888 E2.24697
G0 F6000 X169.207 Y140.943
G1 F1200 X169.254 Y140.726 E2.25436
G1 X169.353 Y140.539 E2.2614
G1 X169.51 Y140.374 E2.26897
G1 X169.806 Y140.229 E2.27994
G1 X170.024 Y140.206 E2.28723
G1 X170.24 Y140.243 E2.29452
G1 X170.437 Y140.336 E2.30176
G1 X170.603 Y140.483 E2.30914
G1 X170.726 Y140.676 E2.31675
G1 X170.787 Y140.885 E2.32399
G1 X170.787 Y141.115 E2.33164
G1 X170.726 Y141.324 E2.33888
G1 X170.603 Y141.517 E2.34649
G1 X170.437 Y141.664 E2.35387
G1 X170.24 Y141.757 E2.36111
G1 X170.024 Y141.794 E2.3684
G1 X169.806 Y141.771 E2.37569
G1 X169.51 Y141.626 E2.38666
G1 X169.353 Y141.461 E2.39423
G1 X169.254 Y141.274 E2.40127
G1 X169.207 Y140.943 E2.41239
G0 F6000 X169.607 Y141.03
G1 F1200 X169.653 Y140.813 E2.41977
G1 X169.798 Y140.662 E2.42673
G1 X169.957 Y140.609 E2.4323
G1 X170.211 Y140.668 E2.44098
G1 X170.334 Y140.792 E2.44678
G1 X170.39 Y141.059 E2.45586
G1 X170.303 Y141.25 E2.46284
G1 X170.113 Y141.377 E2.47044
G1 X169.957 Y141.391 E2.47565
G1 X169.798 Y141.338 E2.48122
G1 X169.653 Y141.187 E2.48819
G1 X169.607 Y141.03 E2.49363
G1 F1500 E-4.00637
G0 F6000 X51.825 Y140.188
G1 F1500 E2.49363
G1 F1200 X51.921 Y140.453 E2.503
G1 X51.978 Y140.718 E2.51202
G1 X51.997 Y141 E2.52142
G1 X51.978 Y141.282 E2.53082
G1 X51.921 Y141.547 E2.53984
G1 X51.825 Y141.812 E2.54921
G1 X51.696 Y142.055 E2.55836
G1 X51.527 Y142.286 E2.56788
G1 X51.336 Y142.485 E2.57705
G1 X51.114 Y142.659 E2.58644
G1 X50.879 Y142.794 E2.59545
G1 X50.614 Y142.901 E2.60495
G1 X50.354 Y142.965 E2.61386
G1 X50.069 Y142.996 E2.6234
G1 X49.79 Y142.986 E2.63268
G1 X49.513 Y142.937 E2.64204
G1 X49.259 Y142.854 E2.65092
G1 X48.992 Y142.724 E2.6608
G1 X48.777 Y142.58 E2.66941
G1 X48.561 Y142.385 E2.67909
G1 X48.383 Y142.173 E2.68829
G1 X48.236 Y141.938 E2.69751
G1 X48.121 Y141.68 E2.70691
G1 X48.046 Y141.418 E2.71597
G1 X48.007 Y141.138 E2.72538
G1 X48.007 Y140.862 E2.73456
G1 X48.046 Y140.582 E2.74396
G1 X48.121 Y140.32 E2.75302
G1 X48.236 Y140.062 E2.76242
G1 X48.383 Y139.827 E2.77164
G1 X48.561 Y139.615 E2.78084
G1 X48.777 Y139.42 E2.79052
G1 X48.992 Y139.276 E2.79913
G1 X49.259 Y139.146 E2.80901
G1 X49.513 Y139.063 E2.81789
G1 X49.79 Y139.014 E2.82725
G1 X50.069 Y139.004 E2.83654
G1 X50.354 Y139.035 E2.84607
G1 X50.614 Y139.099 E2.85498
G1 X50.879 Y139.206 E2.86448
G1 X51.114 Y139.341 E2.8735
G1 X51.336 Y139.515 E2.88288
G1 X51.524 Y139.71 E2.89189
G1 X51.696 Y139.945 E2.90157
G1 X51.825 Y140.188 E2.91072
G0 F6000 X49.607 Y141.03
G1 F1200 X49.653 Y140.813 E2.9181
G1 X49.798 Y140.662 E2.92506
G1 X49.957 Y140.609 E2.93064
G1 X50.211 Y140.668 E2.93931
G1 X50.334 Y140.792 E2.94512
G1 X50.39 Y141.059 E2.95419
G1 X50.303 Y141.25 E2.96117
G1 X50.113 Y141.377 E2.96878
G1 X49.957 Y141.391 E2.97398
G1 X49.798 Y141.338 E2.97956
G1 X49.653 Y141.187 E2.98652
G1 X49.607 Y141.03 E2.99196
G0 F6000 X49.207 Y140.943
G1 F1200 X49.254 Y140.726 E2.99935
G1 X49.353 Y140.539 E3.00639
G1 X49.51 Y140.374 E3.01396
G1 X49.806 Y140.229 E3.02492
G1 X50.024 Y140.206 E3.03221
G1 X50.24 Y140.243 E3.0395
G1 X50.437 Y140.336 E3.04675
G1 X50.603 Y140.483 E3.05412
G1 X50.726 Y140.676 E3.06174
G1 X50.787 Y140.885 E3.06898
G1 X50.787 Y141.115 E3.07663
G1 X50.726 Y141.324 E3.08387
G1 X50.603 Y141.517 E3.09148
G1 X50.437 Y141.664 E3.09886
G1 X50.24 Y141.757 E3.1061
G1 X50.024 Y141.794 E3.11339
G1 X49.806 Y141.771 E3.12068
G1 X49.51 Y141.626 E3.13164
G1 X49.353 Y141.461 E3.13922
G1 X49.254 Y141.274 E3.14626
G1 X49.207 Y140.943 E3.15738
G0 F6000 X48.801 Y140.83
G1 F1200 X48.947 Y140.433 E3.17145
G1 X49.196 Y140.094 E3.18543
G1 X49.632 Y139.847 E3.2021
G1 X50.039 Y139.805 E3.21571
G1 X50.366 Y139.862 E3.22675
G1 X50.744 Y140.044 E3.2407
G1 X51.069 Y140.435 E3.25761
G1 X51.184 Y140.829 E3.27127
G1 X51.184 Y141.25 E3.28527
G1 X51.018 Y141.627 E3.29897
G1 X50.743 Y141.956 E3.31323
G1 X50.366 Y142.138 E3.32716
G1 X50.039 Y142.195 E3.3382
G1 X49.632 Y142.153 E3.3518
G1 X49.196 Y141.906 E3.36847
G1 X48.947 Y141.567 E3.38246
G1 X48.83 Y141.249 E3.39373
G1 X48.801 Y140.83 E3.4077
G0 F6000 X48.407 Y140.888
G1 F1200 X48.5 Y140.453 E3.42249
G1 X48.705 Y140.066 E3.43706
G1 X49.024 Y139.736 E3.45233
G1 X49.404 Y139.52 E3.46686
G1 X49.614 Y139.451 E3.47422
G1 X50.054 Y139.405 E3.48893
G1 X50.487 Y139.479 E3.50354
G1 X50.705 Y139.567 E3.51136
G1 X51.071 Y139.816 E3.52608
G1 X51.356 Y140.158 E3.54089
G1 X51.459 Y140.351 E3.54817
G1 X51.581 Y140.773 E3.56278
G1 X51.581 Y141.227 E3.57788
G1 X51.459 Y141.649 E3.59249
G1 X51.356 Y141.842 E3.59976
G1 X51.071 Y142.184 E3.61457
G1 X50.705 Y142.433 E3.62929
G1 X50.487 Y142.521 E3.63711
G1 X50.054 Y142.595 E3.65172
G1 X49.614 Y142.549 E3.66644
G1 X49.404 Y142.48 E3.67379
G1 X49.024 Y142.264 E3.68833
G1 X48.851 Y142.108 E3.69608
G1 X48.59 Y141.75 E3.71081
G1 X48.5 Y141.547 E3.7182
G1 X48.407 Y141.112 E3.73299
G1 X48.407 Y140.888 E3.74044
G1 F1500 E-2.75956
G0 F6000 X49.259 Y72.854
G1 F1500 E3.74044
G1 F1200 X48.992 Y72.724 E3.75032
G1 X48.777 Y72.58 E3.75893
G1 X48.561 Y72.385 E3.76861
G1 X48.383 Y72.173 E3.77781
G1 X48.236 Y71.938 E3.78703
G1 X48.121 Y71.68 E3.79643
G1 X48.046 Y71.418 E3.80549
G1 X48.007 Y71.138 E3.81489
G1 X48.007 Y70.862 E3.82407
G1 X48.046 Y70.582 E3.83348
G1 X48.121 Y70.32 E3.84254
G1 X48.236 Y70.062 E3.85193
G1 X48.383 Y69.827 E3.86115
G1 X48.561 Y69.615 E3.87036
G1 X48.777 Y69.42 E3.88004
G1 X48.992 Y69.276 E3.88865
G1 X49.259 Y69.146 E3.89852
G1 X49.513 Y69.063 E3.90741
G1 X49.79 Y69.014 E3.91677
G1 X50.069 Y69.004 E3.92605
G1 X50.354 Y69.035 E3.93559
G1 X50.614 Y69.099 E3.94449
G1 X50.879 Y69.206 E3.954
G1 X51.114 Y69.341 E3.96301
G1 X51.336 Y69.515 E3.97239
G1 X51.524 Y69.71 E3.9814
G1 X51.696 Y69.945 E3.99109
G1 X51.825 Y70.188 E4.00024
G1 X51.921 Y70.453 E4.00961
G1 X51.978 Y70.718 E4.01863
G1 X51.997 Y71 E4.02803
G1 X51.978 Y71.282 E4.03743
G1 X51.921 Y71.547 E4.04645
G1 X51.825 Y71.812 E4.05582
G1 X51.696 Y72.055 E4.06497
G1 X51.527 Y72.286 E4.07449
G1 X51.336 Y72.485 E4.08367
G1 X51.114 Y72.659 E4.09305
G1 X50.879 Y72.794 E4.10206
G1 X50.614 Y72.901 E4.11157
G1 X50.354 Y72.965 E4.12047
G1 X50.069 Y72.996 E4.13001
G1 X49.79 Y72.986 E4.13929
G1 X49.513 Y72.937 E4.14865
G1 X49.259 Y72.854 E4.15754
G0 F6000 X49.607 Y71.03
G1 F1200 X49.653 Y70.813 E4.16491
G1 X49.798 Y70.662 E4.17188
G1 X49.957 Y70.609 E4.17745
G1 X50.211 Y70.668 E4.18612
G1 X50.334 Y70.792 E4.19193
G1 X50.39 Y71.059 E4.20101
G1 X50.303 Y71.25 E4.20799
G1 X50.113 Y71.377 E4.21559
G1 X49.957 Y71.391 E4.2208
G1 X49.798 Y71.338 E4.22637
G1 X49.653 Y71.187 E4.23334
G1 X49.607 Y71.03 E4.23878
G0 F6000 X49.207 Y70.943
G1 F1200 X49.254 Y70.726 E4.24616
G1 X49.353 Y70.539 E4.2532
G1 X49.51 Y70.374 E4.26078
G1 X49.806 Y70.229 E4.27174
G1 X50.024 Y70.206 E4.27903
G1 X50.24 Y70.243 E4.28632
G1 X50.437 Y70.336 E4.29356
G1 X50.603 Y70.483 E4.30094
G1 X50.726 Y70.676 E4.30855
G1 X50.787 Y70.885 E4.31579
G1 X50.787 Y71.115 E4.32344
G1 X50.726 Y71.324 E4.33068
G1 X50.603 Y71.517 E4.33829
G1 X50.437 Y71.664 E4.34567
G1 X50.24 Y71.757 E4.35292
G1 X50.024 Y71.794 E4.3602
G1 X49.806 Y71.771 E4.3675
G1 X49.51 Y71.626 E4.37846
G1 X49.353 Y71.461 E4.38603
G1 X49.254 Y71.274 E4.39307
G1 X49.207 Y70.943 E4.40419
G0 F6000 X48.801 Y70.83
G1 F1200 X48.947 Y70.433 E4.41826
G1 X49.196 Y70.094 E4.43225
G1 X49.632 Y69.847 E4.44892
G1 X50.039 Y69.805 E4.46252
G1 X50.366 Y69.862 E4.47356
G1 X50.744 Y70.044 E4.48752
G1 X51.069 Y70.435 E4.50443
G1 X51.184 Y70.829 E4.51808
G1 X51.184 Y71.25 E4.53208
G1 X51.018 Y71.627 E4.54578
G1 X50.743 Y71.956 E4.56005
G1 X50.366 Y72.138 E4.57397
G1 X50.039 Y72.195 E4.58501
G1 X49.632 Y72.153 E4.59862
G1 X49.196 Y71.906 E4.61528
G1 X48.947 Y71.567 E4.62927
G1 X48.83 Y71.249 E4.64054
G1 X48.801 Y70.83 E4.65451
G0 F6000 X48.407 Y70.888
G1 F1200 X48.5 Y70.453 E4.66931
G1 X48.705 Y70.066 E4.68388
G1 X49.024 Y69.736 E4.69914
G1 X49.404 Y69.52 E4.71368
G1 X49.614 Y69.451 E4.72103
G1 X50.054 Y69.405 E4.73575
G1 X50.487 Y69.479 E4.75036
G1 X50.705 Y69.567 E4.75817
G1 X51.071 Y69.816 E4.7729
G1 X51.356 Y70.158 E4.7877
G1 X51.459 Y70.351 E4.79498
G1 X51.581 Y70.773 E4.80959
G1 X51.581 Y71.227 E4.82469
G1 X51.459 Y71.649 E4.8393
G1 X51.356 Y71.842 E4.84658
G1 X51.071 Y72.184 E4.86139
G1 X50.705 Y72.433 E4.87611
G1 X50.487 Y72.521 E4.88393
G1 X50.054 Y72.595 E4.89854
G1 X49.614 Y72.549 E4.91325
G1 X49.404 Y72.48 E4.9206
G1 X49.024 Y72.264 E4.93514
G1 X48.851 Y72.108 E4.94289
G1 X48.59 Y71.75 E4.95763
G1 X48.5 Y71.547 E4.96501
G1 X48.407 Y71.112 E4.97981
G1 X48.407 Y70.888 E4.98726
G1 F1500 E-1.51274
;MESH:housing_bottom.stl
G0 F6000 X81.497 Y82.346
G0 X83.359 Y83.496
G0 X85.302 Y84.567
;TYPE:WALL-INNER
G1 F1500 E4.98726
G1 F1200 X84.714 Y84.568 E5.00681
G1 X84.117 Y84.469 E5.02694
G1 X83.562 Y84.278 E5.04646
G1 X83.042 Y83.995 E5.06615
